!!!!SEGMENT: pl-cz--iii-195--001_elsner-jozef--missa-f-op-25-kyrie.krn
!!!id: 18xx:247
!!!COM: Elsner, Józef
!!!COM-rism: pe30000957
!!!CDT: 1769/06/01-1854/04/18
!!!CNT: Polish
!!!OTL: Missa F op. 25 - Kyrie
!!!PDT:
!!!SMS-siglum: PL-CZ
!!!SMS-shelfmark: III-195
!!!NIFC-rismID:
!!!URL-scan: http://repozytorium.nifc.pl/skany/pl-cz-nut--iii-195
!!!ONB-nifc: UWAGA: części Mszy: Kyrie, Gloria, Credo, Sanctus, Benedictus, Agnus Dei
**kern	**fba	**dynam	**kern	**kern	**dynam	**kern	**dynam	**kern	**dynam	**kern	**dynam	**kern	**text	**text	**dynam	**kern	**text	**text	**dynam	**kern	**text	**text	**dynam	**kern	**text	**text	**dynam
*part10	*	*part10	*part9	*part8	*part8	*part7	*part7	*part6	*part6	*part5	*part5	*part4	*part4	*part4	*part4	*part3	*part3	*part3	*part3	*part2	*part2	*part2	*part2	*part1	*part1	*part1	*part1
*	*	*	*	*	*	*	*	*group2	*	*group2	*	*group1	*	*	*	*group1	*	*	*	*group1	*	*	*	*group1	*	*	*
*staff10	*	*	*staff9	*staff8	*	*staff7	*	*staff6	*	*staff5	*	*staff4	*staff4	*staff4	*	*staff3	*staff3	*staff3	*	*staff2	*staff2	*staff2	*	*staff1	*staff1	*staff1	*
*I"Organo et Basso	*	*	*I"Corni in F	*I"Clarinetti in B	*	*I"Viole	*	*I""Violini	*	*	*	*I"Basso	*	*	*	*I"Tenore	*	*	*	*I"Alto	*	*	*	*I"Canto	*	*	*
*I'Org	*	*	*I'Cor in F	*I'Cl in B♭	*	*I'Va	*	*I'Vn	*	*	*	*I'B	*	*	*	*I'T	*	*	*	*I'A	*	*	*	*I'C	*	*	*
*clefF4	*	*	*clefG2	*clefG2	*	*clefC3	*	*clefG2	*	*clefG2	*	*clefF4	*	*	*	*clefC4	*	*	*	*clefC3	*	*	*	*clefC1	*	*	*
*	*	*	*ITrd4c7	*ITrd1c2	*	*	*	*	*	*	*	*	*	*	*	*	*	*	*	*	*	*	*	*	*	*	*
*k[b-]	*	*	*k[b-]	*k[b-]	*	*k[b-]	*	*k[b-]	*	*k[b-]	*	*k[b-]	*	*	*	*k[b-]	*	*	*	*k[b-]	*	*	*	*k[b-]	*	*	*
*M3/4	*	*	*M3/4	*M3/4	*	*M3/4	*	*M3/4	*	*M3/4	*	*M3/4	*	*	*	*M3/4	*	*	*	*M3/4	*	*	*	*M3/4	*	*	*
=1	=1	=1	=1	=1	=1	=1	=1	=1	=1	=1	=1	=1	=1	=1	=1	=1	=1	=1	=1	=1	=1	=1	=1	=1	=1	=1	=1
*	*	*	*	*	*	*tremolo	*	*tremolo	*	*4\right	*	*	*	*	*	*	*	*	*	*	*	*	*	*	*	*	*
!LO:TX:b:Bi:t=Andantino	!	!LO:DY:a:rj	!	!	!	!	!LO:DY:a	!	!LO:DY:a:rj:t=p&colon;	!	!LO:DY:a:rj:t=p&colon;	!	!	!	!	!	!	!	!	!	!	!	!	!LO:TX:a:Bi:t=Andantino	!	!	!
(4FF/	.	p	2.r	2.r	.	(8F/L	p	(8A/L	p	(4.ff\	p	2.r	.	.	.	2.r	.	.	.	2.r	.	.	.	2.r	.	.	.
.	.	.	.	.	.	8A/	.	8c/	.	.	.	.	.	.	.	.	.	.	.	.	.	.	.	.	.	.	.
4AA/	.	.	.	.	.	8F/	.	8A/	.	.	.	.	.	.	.	.	.	.	.	.	.	.	.	.	.	.	.
*	*	*	*	*	*	*	*	*	*	*8\right	*	*	*	*	*	*	*	*	*	*	*	*	*	*	*	*	*
.	.	.	.	.	.	8A/	.	8c/	.	8ccc\L	.	.	.	.	.	.	.	.	.	.	.	.	.	.	.	.	.
4FF/)	.	.	.	.	.	8F/	.	8A/	.	8aa\	.	.	.	.	.	.	.	.	.	.	.	.	.	.	.	.	.
.	.	.	.	.	.	8A/J)	.	8c/J)	.	8ff\J	.	.	.	.	.	.	.	.	.	.	.	.	.	.	.	.	.
=2	=2	=2	=2	=2	=2	=2	=2	=2	=2	=2	=2	=2	=2	=2	=2	=2	=2	=2	=2	=2	=2	=2	=2	=2	=2	=2	=2
4BB-/	.	.	2.r	2.r	.	8F/L	.	8B-/L	.	4.dd\)	.	2.r	.	.	.	2.r	.	.	.	2.r	.	.	.	2.r	.	.	.
.	.	.	.	.	.	8B-/	.	8d/	.	.	.	.	.	.	.	.	.	.	.	.	.	.	.	.	.	.	.
4r	.	.	.	.	.	8F/	.	8B-/	.	.	.	.	.	.	.	.	.	.	.	.	.	.	.	.	.	.	.
.	.	.	.	.	.	8B-/J	.	8d/	.	(8ddd\L	.	.	.	.	.	.	.	.	.	.	.	.	.	.	.	.	.
4BB-/	6	.	.	.	.	8G/L	.	8B-/	.	8bb-\	.	.	.	.	.	.	.	.	.	.	.	.	.	.	.	.	.
.	.	.	.	.	.	8B-/J	.	8d/J	.	8gg\J)	.	.	.	.	.	.	.	.	.	.	.	.	.	.	.	.	.
=3	=3	=3	=3	=3	=3	=3	=3	=3	=3	=3	=3	=3	=3	=3	=3	=3	=3	=3	=3	=3	=3	=3	=3	=3	=3	=3	=3
4C/	6_ 4_	.	4r	4r	.	(8F/L	.	(8A/L	.	(4.aa\	.	2.r	.	.	.	2.r	.	.	.	2.r	.	.	.	2.r	.	.	.
.	.	.	.	.	.	8A/	.	8c/	.	.	.	.	.	.	.	.	.	.	.	.	.	.	.	.	.	.	.
*4\right	*	*	*	*	*	*	*	*	*	*	*	*	*	*	*	*	*	*	*	*	*	*	*	*	*	*	*
4c\	.	.	4c/	4ff 4a\	.	8F/	.	8A/	.	.	.	.	.	.	.	.	.	.	.	.	.	.	.	.	.	.	.
.	X X	.	.	.	.	8A/	.	8c/	.	8ff\L)	.	.	.	.	.	.	.	.	.	.	.	.	.	.	.	.	.
4r	.	.	4c/	4ff 4a\	.	8F/	.	8A/	.	8cc\	.	.	.	.	.	.	.	.	.	.	.	.	.	.	.	.	.
.	.	.	.	.	.	8A/J)	.	8c/J)	.	(8aa\J	.	.	.	.	.	.	.	.	.	.	.	.	.	.	.	.	.
=4	=4	=4	=4	=4	=4	=4	=4	=4	=4	=4	=4	=4	=4	=4	=4	=4	=4	=4	=4	=4	=4	=4	=4	=4	=4	=4	=4
4C/	7_ 5_	.	4r	4r	.	8G/L	.	8B-/L	.	4.bb-\	.	2.r	.	.	.	2.r	.	.	.	2.r	.	.	.	2.r	.	.	.
.	.	.	.	.	.	8B-/	.	8c/	.	.	.	.	.	.	.	.	.	.	.	.	.	.	.	.	.	.	.
4c\	.	.	4c/	4ee 4b-\	.	8G/	.	8B-/	.	.	.	.	.	.	.	.	.	.	.	.	.	.	.	.	.	.	.
*	*	*	*	*	*	*	*	*	*	*16\right	*	*	*	*	*	*	*	*	*	*	*	*	*	*	*	*	*
.	.	.	.	.	.	8B-/	.	8c/	.	16bb-\LL)	.	.	.	.	.	.	.	.	.	.	.	.	.	.	.	.	.
.	.	.	.	.	.	.	.	.	.	(16aa\	.	.	.	.	.	.	.	.	.	.	.	.	.	.	.	.	.
4C/	.	.	4c/	4ee 4b-\	.	8G/	.	8B-/	.	16gg\	.	.	.	.	.	.	.	.	.	.	.	.	.	.	.	.	.
.	.	.	.	.	.	.	.	.	.	16ff\	.	.	.	.	.	.	.	.	.	.	.	.	.	.	.	.	.
.	.	.	.	.	.	8B-/J	.	8c/J	.	16ee\	.	.	.	.	.	.	.	.	.	.	.	.	.	.	.	.	.
.	X X	.	.	.	.	.	.	.	.	16gg\JJ	.	.	.	.	.	.	.	.	.	.	.	.	.	.	.	.	.
*	*	*	*	*	*	*Xtremolo	*	*Xtremolo	*	*	*	*	*	*	*	*	*	*	*	*	*	*	*	*	*	*	*
=5	=5	=5	=5	=5	=5	=5	=5	=5	=5	=5	=5	=5	=5	=5	=5	=5	=5	=5	=5	=5	=5	=5	=5	=5	=5	=5	=5
*2\right	*	*	*	*	*	*	*	*	*	*2\right	*	*2\right	*	*	*	*2\right	*	*	*	*2\right	*	*	*	*	*	*	*
!	!	!	!	!	!	!	!	!	!	!	!	!	!	!	!LO:DY:a	!	!	!	!LO:DY:a	!	!	!	!LO:DY:a	!	!	!	!LO:DY:a
2F\	.	.	2c 2F/	2ff 2a\	.	2F/	.	2A/	.	2ff\)	.	2F\	Ky-	Do-	p	2A\	Ky-	Do-	p	2f\	Ky-	Do-	p	2f/	Ky-	Do-	p
*	*	*	*	*	*	*	*	*	*	*	*	*4\right	*	*	*	*4\right	*	*	*	*4\right	*	*	*	*	*	*	*
4r	.	.	4r	4r	.	4r	.	4r	.	4r	.	4F\	-ri-	-na	.	4A\	-ri-	-na	.	4f\	-ri-	-na	.	4f/	-ri-	-na	.
=6	=6	=6	=6	=6	=6	=6	=6	=6	=6	=6	=6	=6	=6	=6	=6	=6	=6	=6	=6	=6	=6	=6	=6	=6	=6	=6	=6
*	*	*	*	*	*	*	*	*	*	*	*	*	*	*	*	*	*	*	*	*	*	*	*	*2\right	*	*	*
!LO:TX:a:t=[segno]:problem:odwołanie z Agnus Dei	!	!	!LO:TX:a:t=[segno]:problem:odwołanie z Agnus Dei	!LO:TX:a:t=[segno]:problem:odwołanie z Agnus Dei	!	!LO:TX:a:t=[segno]:problem:odwołanie z Agnus Dei	!	!LO:TX:a:t=[segno]:problem:odwołanie z Agnus Dei	!	!LO:TX:a:t=[segno]:problem:odwołanie z Agnus Dei	!	!LO:TX:a:t=[segno]:problem:odwołanie z Agnus Dei	!	!	!	!LO:TX:a:t=[segno]:problem:odwołanie z Agnus Dei	!	!	!	!LO:TX:a:t=[segno]:problem:odwołanie z Agnus Dei	!	!	!	!LO:TX:a:t=[segno]:problem:odwołanie z Agnus Dei	!	!	!
2.r	.	.	2.r	2.r	.	2.r	.	2.r	.	2.r	.	2F\	-e	no-	.	2B-\	-e	no-	.	2e\	-e	no-	.	2g\	-e	no-	.
*	*	*	*	*	*	*	*	*	*	*	*	*	*	*	*	*	*	*	*	*	*	*	*	*4\right	*	*	*
.	.	.	.	.	.	.	.	.	.	.	.	4F\	e	-bis	.	4c\	e	-bis	.	4e-X\	e	-bis	.	4a\	e-	-bis	.
=7	=7	=7	=7	=7	=7	=7	=7	=7	=7	=7	=7	=7	=7	=7	=7	=7	=7	=7	=7	=7	=7	=7	=7	=7	=7	=7	=7
!!LO:PB:g=original
2.r	.	.	2.r	2.r	.	2.r	.	2.r	.	2.r	.	2.F\	.	.	.	2d\	.	.	.	2d\	.	.	.	2.b-\	-lei-	pa-	.
.	.	.	.	.	.	.	.	.	p	.	.	.	.	.	.	4d-X\	.	.	.	4en\	.	.	.	.	.	.	.
=8	=8	=8	=8	=8	=8	=8	=8	=8	=8	=8	=8	=8	=8	=8	=8	=8	=8	=8	=8	=8	=8	=8	=8	=8	=8	=8	=8
!	!	!	!	!	!	!	!LO:DY:a:problem: p na pięciolinii	!	!	!	!	!	!	!	!	!	!	!	!	!	!	!	!	!	!	!	!
(4.F\	5	.	2.r	2.r	.	2.A 2.F/	p	(16A/LL	.	4r	.	2F\	.	.	.	2c\	.	.	.	2f\	.	.	.	2a\	-son	-cem	.
.	.	.	.	.	.	.	.	16c/	.	.	.	.	.	.	.	.	.	.	.	.	.	.	.	.	.	.	.
.	.	.	.	.	.	.	.	16f/	.	.	.	.	.	.	.	.	.	.	.	.	.	.	.	.	.	.	.
.	.	.	.	.	.	.	.	16c/JJ)	.	.	.	.	.	.	.	.	.	.	.	.	.	.	.	.	.	.	.
.	.	.	.	.	.	.	.	(16f/LL	.	4r	.	.	.	.	.	.	.	.	.	.	.	.	.	.	.	.	.
.	.	.	.	.	.	.	.	16c/	.	.	.	.	.	.	.	.	.	.	.	.	.	.	.	.	.	.	.
*8\right	*	*	*	*	*	*	*	*	*	*	*	*	*	*	*	*	*	*	*	*	*	*	*	*	*	*	*
8c\L	.	.	.	.	.	.	.	16A/	.	.	.	.	.	.	.	.	.	.	.	.	.	.	.	.	.	.	.
.	.	.	.	.	.	.	.	16c/JJ	.	.	.	.	.	.	.	.	.	.	.	.	.	.	.	.	.	.	.
!	!	!	!	!	!	!	!	!	!	!LO:TX:b:t=dolce	!	!	!	!	!	!	!	!	!	!	!	!	!	!	!	!	!
8A\	.	.	.	.	.	.	.	16A/LL	.	(4aa\	.	4r	.	.	.	4r	.	.	.	4r	.	.	.	4r	.	.	.
.	.	.	.	.	.	.	.	16c/	.	.	.	.	.	.	.	.	.	.	.	.	.	.	.	.	.	.	.
8F\J)	.	.	.	.	.	.	.	16f/	.	.	.	.	.	.	.	.	.	.	.	.	.	.	.	.	.	.	.
.	.	.	.	.	.	.	.	16c/JJ)	.	.	.	.	.	.	.	.	.	.	.	.	.	.	.	.	.	.	.
=9	=9	=9	=9	=9	=9	=9	=9	=9	=9	=9	=9	=9	=9	=9	=9	=9	=9	=9	=9	=9	=9	=9	=9	=9	=9	=9	=9
*tremolo	*	*	*	*	*	*	*	*	*	*	*	*	*	*	*	*	*	*	*	*	*	*	*	*	*	*	*
8E\L	6 5	.	2.r	2.r	.	2.B- 2.G/	.	(16B-/LL	.	4.gg\)	.	2E\	.	.	.	2c\	.	.	.	2g\	.	.	.	2b-\	Ky-	do-	.
.	.	.	.	.	.	.	.	16c/	.	.	.	.	.	.	.	.	.	.	.	.	.	.	.	.	.	.	.
8C\	.	.	.	.	.	.	.	16B-/	.	.	.	.	.	.	.	.	.	.	.	.	.	.	.	.	.	.	.
.	.	.	.	.	.	.	.	16c/JJ)	.	.	.	.	.	.	.	.	.	.	.	.	.	.	.	.	.	.	.
*	*	*	*	*	*	*	*	*rep	*	*	*	*	*	*	*	*	*	*	*	*	*	*	*	*	*	*	*
8E\	.	.	.	.	.	.	.	(16B-/LL	.	.	.	.	.	.	.	.	.	.	.	.	.	.	.	.	.	.	.
.	.	.	.	.	.	.	.	16c/	.	.	.	.	.	.	.	.	.	.	.	.	.	.	.	.	.	.	.
8C\	.	.	.	.	.	.	.	16B-/	.	(8ccc\L	.	.	.	.	.	.	.	.	.	.	.	.	.	.	.	.	.
.	.	.	.	.	.	.	.	16c/JJ)	.	.	.	.	.	.	.	.	.	.	.	.	.	.	.	.	.	.	.
*	*	*	*	*	*	*	*	*Xrep	*	*	*	*	*	*	*	*	*	*	*	*	*	*	*	*	*	*	*
*	*	*	*	*	*	*	*	*rep	*	*	*	*	*	*	*	*	*	*	*	*	*	*	*	*	*	*	*
8E\	.	.	.	.	.	.	.	(16B-/LL	.	8bb-\	.	4E\	.	.	.	4c\	.	.	.	4g\	.	.	.	4cc\	-ri-	-na	.
.	.	.	.	.	.	.	.	16c/	.	.	.	.	.	.	.	.	.	.	.	.	.	.	.	.	.	.	.
8C\J	.	.	.	.	.	.	.	16B-/	.	8gg\J)	.	.	.	.	.	.	.	.	.	.	.	.	.	.	.	.	.
.	.	.	.	.	.	.	.	16c/JJ)	.	.	.	.	.	.	.	.	.	.	.	.	.	.	.	.	.	.	.
*	*	*	*	*	*	*	*	*Xrep	*	*	*	*	*	*	*	*	*	*	*	*	*	*	*	*	*	*	*
=10	=10	=10	=10	=10	=10	=10	=10	=10	=10	=10	=10	=10	=10	=10	=10	=10	=10	=10	=10	=10	=10	=10	=10	=10	=10	=10	=10
4.F\	.	.	2.r	2.r	.	2.A 2.F/	.	16A/LL	.	2ff\	.	2F\	.	.	.	2c\	.	.	.	2f\	.	.	.	2a\	-e	no-	.
.	.	.	.	.	.	.	.	16c/	.	.	.	.	.	.	.	.	.	.	.	.	.	.	.	.	.	.	.
.	.	.	.	.	.	.	.	16f/	.	.	.	.	.	.	.	.	.	.	.	.	.	.	.	.	.	.	.
.	.	.	.	.	.	.	.	16c/JJ	.	.	.	.	.	.	.	.	.	.	.	.	.	.	.	.	.	.	.
.	.	.	.	.	.	.	.	16f/LL	.	.	.	.	.	.	.	.	.	.	.	.	.	.	.	.	.	.	.
.	.	.	.	.	.	.	.	16c/	.	.	.	.	.	.	.	.	.	.	.	.	.	.	.	.	.	.	.
8c\L	.	.	.	.	.	.	.	16A/	.	.	.	.	.	.	.	.	.	.	.	.	.	.	.	.	.	.	.
.	.	.	.	.	.	.	.	16c/JJ	.	.	.	.	.	.	.	.	.	.	.	.	.	.	.	.	.	.	.
8A\	.	.	.	.	.	.	.	16A/LL	.	4aa\	.	4F\	.	.	.	4c\	.	.	.	4f\	.	.	.	4a\	e-	-bis	.
.	.	.	.	.	.	.	.	16c/	.	.	.	.	.	.	.	.	.	.	.	.	.	.	.	.	.	.	.
8F\J	.	.	.	.	.	.	.	16f/	.	.	.	.	.	.	.	.	.	.	.	.	.	.	.	.	.	.	.
.	.	.	.	.	.	.	.	16c/JJ	.	.	.	.	.	.	.	.	.	.	.	.	.	.	.	.	.	.	.
=11	=11	=11	=11	=11	=11	=11	=11	=11	=11	=11	=11	=11	=11	=11	=11	=11	=11	=11	=11	=11	=11	=11	=11	=11	=11	=11	=11
*	*	*	*	*	*	*	*	*tremolo	*	*	*	*	*	*	*	*	*	*	*	*	*	*	*	*	*	*	*
8E\L	6 5	<	2.r	2.r	.	(<2.B- 2.G/	.	(16B-/LL	.	4.gg\	.	(2.E\	.	.	.	2.c\	.	.	.	2.g\	.	.	.	(2b-\	-lei-	pa-	.
.	.	.	.	.	.	.	.	16c/	.	.	.	.	.	.	.	.	.	.	.	.	.	.	.	.	.	.	.
8C\	.	.	.	.	.	.	.	16B-/	.	.	.	.	.	.	.	.	.	.	.	.	.	.	.	.	.	.	.
.	.	.	.	.	.	.	.	16c/	.	.	.	.	.	.	.	.	.	.	.	.	.	.	.	.	.	.	.
8E\	.	.	.	.	.	.	.	16B-/	.	.	.	.	.	.	.	.	.	.	.	.	.	.	.	.	.	.	.
.	.	.	.	.	.	.	.	16c/	.	.	.	.	.	.	.	.	.	.	.	.	.	.	.	.	.	.	.
8C\	.	.	.	.	.	.	.	16B-/	.	(16ddd\LL	.	.	.	.	.	.	.	.	.	.	.	.	.	.	.	.	.
.	.	.	.	.	.	.	.	16c/	.	16ccc\JJ	.	.	.	.	.	.	.	.	.	.	.	.	.	.	.	.	.
8E\	.	.	.	.	.	.	.	16B-/	.	16bb-\LL	.	.	.	.	.	.	.	.	.	.	.	.	.	4cc\)	.	.	.
.	.	.	.	.	.	.	.	16c/	.	16aa\	.	.	.	.	.	.	.	.	.	.	.	.	.	.	.	.	.
8C\J	.	.	.	.	.	.	.	16B-/	.	16bb-\	.	.	.	.	.	.	.	.	.	.	.	.	.	.	.	.	.
.	.	[[	.	.	.	.	.	16c/JJ)	.	16gg\JJ)	.	.	.	.	.	.	.	.	.	.	.	.	.	.	.	.	.
*	*	*	*	*	*	*	*	*Xtremolo	*	*	*	*	*	*	*	*	*	*	*	*	*	*	*	*	*	*	*
=12	=12	=12	=12	=12	=12	=12	=12	=12	=12	=12	=12	=12	=12	=12	=12	=12	=12	=12	=12	=12	=12	=12	=12	=12	=12	=12	=12
*	*	*	*	*2\right	*	*	*	*	*	*	*	*	*	*	*	*	*	*	*	*	*	*	*	*	*	*	*
!	!	!	!	!	!LO:DY:b:problem:p na pięciolinii	!	!	!	!	!	!	!	!	!	!	!	!	!	!	!	!	!	!	!	!	!	!
8F\L	5_ 3_	.	[2.f 2.F/	(2.ff 2.a\	p	2A 2F/)	.	16A/LL	.	16ff'\LL	.	2F\)	.	.	.	2c\	.	.	.	2f\	.	.	.	2a\	-son	-cem	.
.	.	.	.	.	.	.	.	16a/	.	(16ff\	.	.	.	.	.	.	.	.	.	.	.	.	.	.	.	.	.
8F\	.	.	.	.	.	.	.	16g#X/	.	16ee\	.	.	.	.	.	.	.	.	.	.	.	.	.	.	.	.	.
.	.	.	.	.	.	.	.	16a/JJ	.	16ff\JJ)	.	.	.	.	.	.	.	.	.	.	.	.	.	.	.	.	.
8F\	.	.	.	.	.	.	.	(16b-/LL	.	(16gg\LL	.	.	.	.	.	.	.	.	.	.	.	.	.	.	.	.	.
.	.	.	.	.	.	.	.	16a/	.	16ff\	.	.	.	.	.	.	.	.	.	.	.	.	.	.	.	.	.
8F\	.	.	.	.	.	.	.	16g#/	.	16ee\	.	.	.	.	.	.	.	.	.	.	.	.	.	.	.	.	.
.	.	.	.	.	.	.	.	16a/JJ	.	16ff\JJ)	.	.	.	.	.	.	.	.	.	.	.	.	.	.	.	.	.
*	*	*	*	*	*	*4\right	*	*	*	*rep	*	*	*	*	*	*	*	*	*	*	*	*	*	*	*	*	*
8F\	.	.	.	.	.	(4f\	.	16b-/LL	.	16gg\LL	.	4r	.	.	.	4r	.	.	.	4r	.	.	.	4r	.	.	.
.	.	.	.	.	.	.	.	16a/	.	16ff\	.	.	.	.	.	.	.	.	.	.	.	.	.	.	.	.	.
8F\J	.	.	.	.	.	.	.	16g#/	.	16ee\	.	.	.	.	.	.	.	.	.	.	.	.	.	.	.	.	.
.	X X	.	.	.	.	.	.	16a/JJ)	.	16ff\JJ	.	.	.	.	.	.	.	.	.	.	.	.	.	.	.	.	.
*	*	*	*	*	*	*	*	*	*	*Xrep	*	*	*	*	*	*	*	*	*	*	*	*	*	*	*	*	*
=13	=13	=13	=13	=13	=13	=13	=13	=13	=13	=13	=13	=13	=13	=13	=13	=13	=13	=13	=13	=13	=13	=13	=13	=13	=13	=13	=13
*	*	*	*	*	*	*2\right	*	*	*	*	*	*	*	*	*	*	*	*	*	*	*	*	*	*	*	*	*
8F\L	7 4 2	.	2.f_ 2.F/	2gg 2b-\	<	2en\)	.	16b-/LL	.	16gg\LL	.	4r	.	.	.	4r	.	.	.	4r	.	.	.	4r	.	.	.
.	.	.	.	.	.	.	.	16b-/	.	16gg\	.	.	.	.	.	.	.	.	.	.	.	.	.	.	.	.	.
8F\	.	.	.	.	.	.	.	16a/	.	16ff#X\	.	.	.	.	.	.	.	.	.	.	.	.	.	.	.	.	.
.	.	.	.	.	.	.	.	16b-/JJ	.	16gg\JJ	.	.	.	.	.	.	.	.	.	.	.	.	.	.	.	.	.
8F\	.	.	.	.	.	.	.	16cc/LL	.	16aa\LL	.	4r	.	.	.	4r	.	.	.	4r	.	.	.	4r	.	.	.
.	.	.	.	.	.	.	.	16b-/	.	16gg\	.	.	.	.	.	.	.	.	.	.	.	.	.	.	.	.	.
8F\	-7 3	.	.	.	.	.	.	16a/	.	16ff#\	.	.	.	.	.	.	.	.	.	.	.	.	.	.	.	.	.
.	.	.	.	.	.	.	.	16b-/JJ	.	16gg\JJ	.	.	.	.	.	.	.	.	.	.	.	.	.	.	.	.	.
*	*	*	*	*4\right	*	*	*	*	*	*	*	*	*	*	*	*	*	*	*	*	*	*	*	*	*	*	*
8F\	.	.	.	4aa 4cc\)	[[	(4e-X\	.	(16g/LL	.	16bb-\LL	.	4F\	.	.	.	4c\	.	.	.	4a\	.	.	.	4cc\	e-	da	.
.	.	.	.	.	.	.	.	16f/	.	16aa\	.	.	.	.	.	.	.	.	.	.	.	.	.	.	.	.	.
8F\J	.	.	.	.	.	.	.	16e/	.	16gg\	.	.	.	.	.	.	.	.	.	.	.	.	.	.	.	.	.
.	.	.	.	.	.	.	.	16f/JJ)	.	16aa\JJ	.	.	.	.	.	.	.	.	.	.	.	.	.	.	.	.	.
=14	=14	=14	=14	=14	=14	=14	=14	=14	=14	=14	=14	=14	=14	=14	=14	=14	=14	=14	=14	=14	=14	=14	=14	=14	=14	=14	=14
!!LO:PB:g=original
*	*	*	*	*^	*	*	*	*	*	*	*	*	*	*	*	*	*	*	*	*	*	*	*	*	*	*	*
*	*	*	*	*	*	*	*	*	*tremolo	*	*	*	*	*	*	*	*	*	*	*	*	*	*	*	*	*	*	*
*	*	*	*	*	*	*	*	*	*2\right	*	*	*	*	*	*	*	*	*	*	*	*	*	*	*	*	*	*	*
8F\L	6 4	.	2.f] 2.F/	2.bb-\	2dd\	.	(2d\)	.	16dd\LL	.	(16bb-\LL	.	2.F\	.	.	.	2.B-\	.	.	.	2b-\	.	.	.	(2dd\	-lei-	pa-	.
.	.	.	.	.	.	.	.	.	16dd\	.	16ccc\	.	.	.	.	.	.	.	.	.	.	.	.	.	.	.	.	.
8F\	4	.	.	.	.	.	.	.	16dd\	.	16ddd\	.	.	.	.	.	.	.	.	.	.	.	.	.	.	.	.	.
.	.	.	.	.	.	.	.	.	16dd\	.	16ccc\JJ	.	.	.	.	.	.	.	.	.	.	.	.	.	.	.	.	.
8F\	7 2	.	.	.	.	.	.	.	16dd\	.	16bb-\LL	.	.	.	.	.	.	.	.	.	.	.	.	.	.	.	.	.
.	.	.	.	.	.	.	.	.	16dd\	.	16aa\	.	.	.	.	.	.	.	.	.	.	.	.	.	.	.	.	.
8F\	.	.	.	.	.	.	.	.	16dd\	.	16gg\	.	.	.	.	.	.	.	.	.	.	.	.	.	.	.	.	.
.	.	.	.	.	.	.	.	.	16dd\JJ	.	[16ff\JJ	.	.	.	.	.	.	.	.	.	.	.	.	.	.	.	.	.
8F\	.	.	.	.	(>4een\	.	(4d-X\)	.	16b-LL 16g/	.	16ff\LL]	.	.	.	.	.	.	.	.	.	4g\	.	.	.	4ee\)	.	.	.
.	.	.	.	.	.	.	.	.	16b- 16g/	.	16ee\	.	.	.	.	.	.	.	.	.	.	.	.	.	.	.	.	.
8F\J	.	.	.	.	.	.	.	.	16b- 16g/	.	16bb-\	.	.	.	.	.	.	.	.	.	.	.	.	.	.	.	.	.
.	.	.	.	.	.	.	.	.	16b-JJ 16g/	.	16ee\JJ)	.	.	.	.	.	.	.	.	.	.	.	.	.	.	.	.	.
=15	=15	=15	=15	=15	=15	=15	=15	=15	=15	=15	=15	=15	=15	=15	=15	=15	=15	=15	=15	=15	=15	=15	=15	=15	=15	=15	=15	=15
8F\L	.	.	2f 2F/	2.aa/	2.ff\)	.	2c\)	.	(16a/LL	.	16ff'\LL	.	2F\	.	.	.	2A\	.	.	.	2a\	.	.	.	2ff\	-son	-cem	.
.	.	.	.	.	.	.	.	.	16a/	.	(16ff\	.	.	.	.	.	.	.	.	.	.	.	.	.	.	.	.	.
8F\	.	.	.	.	.	.	.	.	16g/	.	16ee\	.	.	.	.	.	.	.	.	.	.	.	.	.	.	.	.	.
.	.	.	.	.	.	.	.	.	16a/JJ)	.	16ff\JJ	.	.	.	.	.	.	.	.	.	.	.	.	.	.	.	.	.
8F\	.	.	.	.	.	.	.	.	16b-/LL	.	16gg\LL)	.	.	.	.	.	.	.	.	.	.	.	.	.	.	.	.	.
.	.	.	.	.	.	.	.	.	16a/	.	(16ff\	.	.	.	.	.	.	.	.	.	.	.	.	.	.	.	.	.
8F\J	.	.	.	.	.	.	.	.	16g/	.	16ee\	.	.	.	.	.	.	.	.	.	.	.	.	.	.	.	.	.
.	.	.	.	.	.	.	.	.	16a/JJ	.	16ff\JJ	.	.	.	.	.	.	.	.	.	.	.	.	.	.	.	.	.
*Xtremolo	*	*	*4\right	*	*	*	*8\right	*	*	*	*	*	*	*	*	*	*	*	*	*	*	*	*	*	*	*	*	*
8D\L	.	.	4a 4f\	.	.	.	8d\L	.	16f/LL	.	16aa\LL	.	4D\	.	.	.	4d\	.	.	.	4a\	.	.	.	[4ff\	e-	da	.
.	.	.	.	.	.	.	.	.	16a/	.	16ff\	.	.	.	.	.	.	.	.	.	.	.	.	.	.	.	.	.
8D\J	.	.	.	.	.	.	8d\J	.	16g/	.	16ee\	.	.	.	.	.	.	.	.	.	.	.	.	.	.	.	.	.
.	.	.	.	.	.	.	.	.	16a/JJ	.	16ff\JJ)	.	.	.	.	.	.	.	.	.	.	.	.	.	.	.	.	.
=16	=16	=16	=16	=16	=16	=16	=16	=16	=16	=16	=16	=16	=16	=16	=16	=16	=16	=16	=16	=16	=16	=16	=16	=16	=16	=16	=16	=16
*	*	*	*2\right	*	*	*	*	*	*	*	*	*	*	*	*	*	*	*	*	*	*	*	*	*	*	*	*	*
*	*	*	*^	*	*	*	*	*	*	*	*	*	*	*	*	*	*	*	*	*	*	*	*	*	*	*	*	*
*tremolo	*	*	*	*	*	*	*	*tremolo	*	*	*	*	*	*	*	*	*	*	*	*	*	*	*	*	*	*	*	*	*
8BBn/L	6 5	.	2g/	2g\	2.gg/	2ff\	.	8gL 8Bn\	.	16f/LL	.	(16ddd\LL	.	2BBn/	.	.	.	2d\	.	.	.	2.g\	.	.	.	(2ff\]	-lei-	pa-	.
.	.	.	.	.	.	.	.	.	.	16dd/	.	16ff\	.	.	.	.	.	.	.	.	.	.	.	.	.	.	.	.	.
8BB/	.	.	.	.	.	.	.	8g 8B\	.	16cc#X/	.	16ee\	.	.	.	.	.	.	.	.	.	.	.	.	.	.	.	.	.
.	.	.	.	.	.	.	.	.	.	16dd/JJ	.	16ff\JJ	.	.	.	.	.	.	.	.	.	.	.	.	.	.	.	.	.
*	*	*	*	*	*	*	*	*	*	*rep	*	*	*	*	*	*	*	*	*	*	*	*	*	*	*	*	*	*	*
8BB/	.	.	.	.	.	.	.	8g 8B\	.	16f/LL	.	16ddd\LL)	.	.	.	.	.	.	.	.	.	.	.	.	.	.	.	.	.
.	.	.	.	.	.	.	.	.	.	16dd/	.	16ff\	.	.	.	.	.	.	.	.	.	.	.	.	.	.	.	.	.
8BB/J	.	.	.	.	.	.	.	8gJ 8B\	.	16cc#/	.	16ee\	.	.	.	.	.	.	.	.	.	.	.	.	.	.	.	.	.
.	.	.	.	.	.	.	.	.	.	16dd/JJ	.	16ff\JJ	.	.	.	.	.	.	.	.	.	.	.	.	.	.	.	.	.
*Xtremolo	*	*	*	*	*	*	*	*Xtremolo	*	*Xrep	*	*	*	*	*	*	*	*	*	*	*	*	*	*	*	*	*	*	*
8C/L	.	.	4g 4c\	4rAyy	.	4ee\	.	8gL 8c\	.	16e/LL	.	16ccc\LL	.	4C/	.	.	.	4c\	.	.	.	.	.	.	.	4ee\)	.	.	.
.	.	.	.	.	.	.	.	.	.	16cc#/	.	16ee\	.	.	.	.	.	.	.	.	.	.	.	.	.	.	.	.	.
8C/J	.	.	.	.	.	.	.	8gJ 8c\	.	16bn/	.	16dd#X\	.	.	.	.	.	.	.	.	.	.	.	.	.	.	.	.	.
.	.	.	.	.	.	.	.	.	.	16cc#/JJ	.	16ee\JJ	.	.	.	.	.	.	.	.	.	.	.	.	.	.	.	.	.
*	*	*	*v	*v	*	*	*	*	*	*	*	*	*	*	*	*	*	*	*	*	*	*	*	*	*	*	*	*	*
*	*	*	*	*v	*v	*	*	*	*	*	*	*	*	*	*	*	*	*	*	*	*	*	*	*	*	*	*	*
=17	=17	=17	=17	=17	=17	=17	=17	=17	=17	=17	=17	=17	=17	=17	=17	=17	=17	=17	=17	=17	=17	=17	=17	=17	=17	=17	=17
*tremolo	*	*	*	*	*	*tremolo	*	*16\right	*	*	*	*	*	*	*	*	*	*	*	*	*	*	*	*	*	*	*
8GG/L	4_	.	2.g\	2.bbX 2.dd\	.	8gL 8G\	.	16bn'\LL	.	16dd'\LL	.	2.GG/	.	.	.	2.Bn\	.	.	.	2.g\	.	.	.	(2.dd\	-son	-cem	.
.	.	.	.	.	.	.	.	(16b\	.	(16dd\	.	.	.	.	.	.	.	.	.	.	.	.	.	.	.	.	.
8GG/	.	.	.	.	.	8g 8G\	.	16a#X\	.	16cc#X\	.	.	.	.	.	.	.	.	.	.	.	.	.	.	.	.	.
.	.	.	.	.	.	.	.	16b\JJ)	.	16dd\JJ	.	.	.	.	.	.	.	.	.	.	.	.	.	.	.	.	.
8GG/	.	.	.	.	.	8g 8G\	.	16b'\LL	.	16ddd'\LL)	.	.	.	.	.	.	.	.	.	.	.	.	.	.	.	.	.
.	.	.	.	.	.	.	.	(16b\	.	(16ddd\	.	.	.	.	.	.	.	.	.	.	.	.	.	.	.	.	.
!	!	!	!	!	!	!	!	!	!	!LO:SIC:s=16ccc#:v	!	!	!	!	!	!	!	!	!	!	!	!	!	!	!	!	!
8GG/	.	.	.	.	.	8g 8G\	.	16a#\	.	16ccc\	.	.	.	.	.	.	.	.	.	.	.	.	.	.	.	.	.
.	.	.	.	.	.	.	.	16b\JJ)	.	16ddd\JJ)	.	.	.	.	.	.	.	.	.	.	.	.	.	.	.	.	.
8GG/	.	.	.	.	.	8g 8G\	.	16dd'\LL	.	16bbn'\LL	.	.	.	.	.	.	.	.	.	.	.	.	.	.	.	.	.
.	.	.	.	.	.	.	.	(16dd\	.	(16bb\	.	.	.	.	.	.	.	.	.	.	.	.	.	.	.	.	.
8GG/J	.	.	.	.	.	8gJ 8G\	.	16cc#X\	.	16aa#X\	.	.	.	.	.	.	.	.	.	.	.	.	.	.	.	.	.
.	.	.	.	.	.	.	.	16dd\JJ)	.	16bb\JJ)	.	.	.	.	.	.	.	.	.	.	.	.	.	.	.	.	.
=18	=18	=18	=18	=18	=18	=18	=18	=18	=18	=18	=18	=18	=18	=18	=18	=18	=18	=18	=18	=18	=18	=18	=18	=18	=18	=18	=18
8GG/L	6 4	.	[2.g\	2bbX 2dd\	.	8gL 8G\	.	16bn/LL	.	16gg'\LL	.	4.GG/	.	.	.	4.Bn\	.	.	.	4.g\	.	.	.	4.dd\)	Ky-	Do-	.
.	.	.	.	.	.	.	.	16b/	.	(16gg\	.	.	.	.	.	.	.	.	.	.	.	.	.	.	.	.	.
8GG/	.	.	.	.	.	8g 8G\	.	16a#X/	.	16ff#X\	.	.	.	.	.	.	.	.	.	.	.	.	.	.	.	.	.
.	.	.	.	.	.	.	.	16b/JJ	.	16gg\JJ)	.	.	.	.	.	.	.	.	.	.	.	.	.	.	.	.	.
8GG/	.	.	.	.	.	8g 8G\	.	16fn/LL	.	16ddd'\LL	.	.	.	.	.	.	.	.	.	.	.	.	.	.	.	.	.
.	.	.	.	.	.	.	.	16dd/	.	(16ffn\	.	.	.	.	.	.	.	.	.	.	.	.	.	.	.	.	.
*	*	*	*	*	*	*	*	*	*	*	*	*8\right	*	*	*	*8\right	*	*	*	*8\right	*	*	*	*8\right	*	*	*
8GG/	.	.	.	.	.	8g 8G\	.	16cc#X/	.	16ee\	.	8G\	.	.	.	8B\	.	.	.	8g\	.	.	.	8dd\	-ri-	-na	.
.	.	.	.	.	.	.	.	16dd/JJ	.	16ff\JJ)	.	.	.	.	.	.	.	.	.	.	.	.	.	.	.	.	.
8GG/	.	.	.	4ccc 4ee\	.	8g 8G\	.	16e/LL	.	16ccc'\LL	.	8G\	.	.	.	8B\	.	.	.	8g\	.	.	.	8ee\	-e	no-	.
.	.	.	.	.	.	.	.	16ccn/	.	(16ee\	.	.	.	.	.	.	.	.	.	.	.	.	.	.	.	.	.
8GG/J	.	.	.	.	.	8gJ 8G\	.	16bn/	.	16dd#X\	.	8G\	.	.	.	8B\	.	.	.	8g\	.	.	.	8ee\	e-	-bis	.
.	.	.	.	.	.	.	.	16cc/JJ	.	16ee\JJ)	.	.	.	.	.	.	.	.	.	.	.	.	.	.	.	.	.
=19	=19	=19	=19	=19	=19	=19	=19	=19	=19	=19	=19	=19	=19	=19	=19	=19	=19	=19	=19	=19	=19	=19	=19	=19	=19	=19	=19
8GG/L	4	.	2.g\_	2.bbX 2.dd\	.	8gL 8G\	.	16bn'/LL	.	16dd'\LL	.	2.G\	.	.	.	2.Bn\	.	.	.	2.g\	.	.	.	2.dd\	-lei-	pa-	.
.	.	.	.	.	.	.	.	(16b/	.	(16dd\	.	.	.	.	.	.	.	.	.	.	.	.	.	.	.	.	.
8GG/	.	.	.	.	.	8g 8G\	.	16a#X/	.	16cc#X\	.	.	.	.	.	.	.	.	.	.	.	.	.	.	.	.	.
.	.	.	.	.	.	.	.	16b/JJ)	.	16dd\JJ)	.	.	.	.	.	.	.	.	.	.	.	.	.	.	.	.	.
*	*	*	*	*	*	*	*	*rep	*	*	*	*	*	*	*	*	*	*	*	*	*	*	*	*	*	*	*
8GG/	.	.	.	.	.	8g 8G\	.	16bn'/LL	.	16ddd'\LL	.	.	.	.	.	.	.	.	.	.	.	.	.	.	.	.	.
.	.	.	.	.	.	.	.	(16b/	.	(16ddd\	.	.	.	.	.	.	.	.	.	.	.	.	.	.	.	.	.
8GG/	.	.	.	.	.	8g 8G\	.	16a#X/	.	16ccc#X\	.	.	.	.	.	.	.	.	.	.	.	.	.	.	.	.	.
.	.	.	.	.	.	.	.	16b/JJ)	.	16ddd\JJ)	.	.	.	.	.	.	.	.	.	.	.	.	.	.	.	.	.
*	*	*	*	*	*	*	*	*Xrep	*	*	*	*	*	*	*	*	*	*	*	*	*	*	*	*	*	*	*
8GG/	.	.	.	.	.	8g 8G\	.	16dd\LL	.	16bbn'\LL	.	.	.	.	.	.	.	.	.	.	.	.	.	.	.	.	.
.	.	.	.	.	.	.	.	16dd\	.	(16bb\	.	.	.	.	.	.	.	.	.	.	.	.	.	.	.	.	.
8GG/J	.	.	.	.	.	8gJ 8G\	.	16cc#X\	.	16aa#X\	.	.	.	.	.	.	.	.	.	.	.	.	.	.	.	.	.
.	.	.	.	.	.	.	.	16dd\JJ	.	16bb\JJ)	.	.	.	.	.	.	.	.	.	.	.	.	.	.	.	.	.
=20	=20	=20	=20	=20	=20	=20	=20	=20	=20	=20	=20	=20	=20	=20	=20	=20	=20	=20	=20	=20	=20	=20	=20	=20	=20	=20	=20
!!LO:PB:g=original
!	!	!	!LO:TX:a:t=P:problem:brak zakończenia ligatury	!	!	!	!	!	!	!	!	!	!	!	!	!LO:SIC:s=2B:v	!	!	!	!	!	!	!	!	!	!	!
2GG/	n	.	2g\]	2bbX 2dd\	.	2g 2G\	.	2bn 2d/	.	16gg'\LL	fp	2G\	.	.	.	2B-\	.	.	.	2g\	.	.	.	2dd\	-son	-cem	.
.	.	.	.	.	.	.	.	.	.	(16gg\	.	.	.	.	.	.	.	.	.	.	.	.	.	.	.	.	.
.	.	.	.	.	.	.	.	.	.	16ff#X\	.	.	.	.	.	.	.	.	.	.	.	.	.	.	.	.	.
.	.	.	.	.	.	.	.	.	.	16gg\JJ)	.	.	.	.	.	.	.	.	.	.	.	.	.	.	.	.	.
.	.	.	.	.	.	.	.	.	.	16ffn'\LL	.	.	.	.	.	.	.	.	.	.	.	.	.	.	.	.	.
.	.	.	.	.	.	.	.	.	.	(16ff\	.	.	.	.	.	.	.	.	.	.	.	.	.	.	.	.	.
.	.	.	.	.	.	.	.	.	.	16ee\	.	.	.	.	.	.	.	.	.	.	.	.	.	.	.	.	.
.	.	.	.	.	.	.	.	.	.	16ff\JJ)	.	.	.	.	.	.	.	.	.	.	.	.	.	.	.	.	.
4r	.	.	4r	4r	.	4r	.	4r	.	16dd'\LL	.	4r	.	.	.	4r	.	.	.	4r	.	.	.	4r	.	.	.
.	.	.	.	.	.	.	.	.	.	(16dd\	.	.	.	.	.	.	.	.	.	.	.	.	.	.	.	.	.
.	.	.	.	.	.	.	.	.	.	16cc#X\	.	.	.	.	.	.	.	.	.	.	.	.	.	.	.	.	.
!	!	!	!	!	!	!	!	!	!LO:DY:a	!	!	!	!	!	!	!	!	!	!	!	!	!	!	!	!	!	!
.	.	.	.	.	.	.	.	.	p	16dd\JJ)	.	.	.	.	.	.	.	.	.	.	.	.	.	.	.	.	.
=21	=21	=21	=21	=21	=21	=21	=21	=21	=21	=21	=21	=21	=21	=21	=21	=21	=21	=21	=21	=21	=21	=21	=21	=21	=21	=21	=21
*	*	*	*	*	*	*	*	*tremolo	*	*	*	*	*	*	*	*	*	*	*	*	*	*	*	*	*	*	*
!LO:TX:a:t=tasto Solo	!	!	!	!	!	!	!	!	!	!	!	!	!	!	!	!	!	!	!	!	!	!	!	!	!	!	!LO:DY:a:rj
4C/	.	.	2.r	2.r	.	(2.c\	.	(8eL 8c/	.	16cc\LL	.	2.r	.	.	.	2.r	.	.	.	2.r	.	.	.	(4.ccn\	Chri-	Do-	p
.	.	.	.	.	.	.	.	.	.	(16cc\	.	.	.	.	.	.	.	.	.	.	.	.	.	.	.	.	.
.	.	.	.	.	.	.	.	8G/	.	16bn\	.	.	.	.	.	.	.	.	.	.	.	.	.	.	.	.	.
.	.	.	.	.	.	.	.	.	.	16cc\JJ)	.	.	.	.	.	.	.	.	.	.	.	.	.	.	.	.	.
4r	.	.	.	.	.	.	.	8e 8c/	.	4g/	.	.	.	.	.	.	.	.	.	.	.	.	.	.	.	.	.
.	.	.	.	.	.	.	.	8G/	.	.	.	.	.	.	.	.	.	.	.	.	.	.	.	8g\)	.	.	.
4r	.	.	.	.	.	.	.	8e 8c/	.	4r	.	.	.	.	.	.	.	.	.	.	.	.	.	(8ee\	-ste	-na	.
.	.	.	.	.	.	.	.	8G/J)	.	.	.	.	.	.	.	.	.	.	.	.	.	.	.	8cc\)	e-	.	.
=22	=22	=22	=22	=22	=22	=22	=22	=22	=22	=22	=22	=22	=22	=22	=22	=22	=22	=22	=22	=22	=22	=22	=22	=22	=22	=22	=22
4GG/	4	.	2.r	2.r	.	(<2.G/)	.	(8fL 8d/	.	16dd'\LL	.	2.r	.	.	.	(4.d\	Chri-	do-	.	2.r	.	.	.	8cc\L	-lei-	no-	.
.	n	.	.	.	.	.	.	.	.	(16dd\	.	.	.	.	.	.	.	.	.	.	.	.	.	.	.	.	.
.	3	.	.	.	.	.	.	8G/	.	16cc#X\	.	.	.	.	.	.	.	.	.	.	.	.	.	8bn\J	.	.	.
.	.	.	.	.	.	.	.	.	.	16dd\JJ)	.	.	.	.	.	.	.	.	.	.	.	.	.	.	.	.	.
4r	.	.	.	.	.	.	.	8f 8d/	.	4g/	.	.	.	.	.	.	.	.	.	.	.	.	.	4b\	-son	-bis	.
.	.	.	.	.	.	.	.	8G/	.	.	.	.	.	.	.	8G\)	-ste	.	.	.	.	.	.	.	.	.	.
4r	.	.	.	.	.	.	.	8f 8d/	.	4r	.	.	.	.	.	8f\	.	.	.	.	.	.	.	4r	.	.	.
.	.	.	.	.	.	.	.	8G/J)	.	.	.	.	.	.	.	[8d\	e-	-na	.	.	.	.	.	.	.	.	.
=23	=23	=23	=23	=23	=23	=23	=23	=23	=23	=23	=23	=23	=23	=23	=23	=23	=23	=23	=23	=23	=23	=23	=23	=23	=23	=23	=23
4C/	8	.	2.r	2.r	.	[2.c\)	.	(8eL 8c/	.	16ee'\LL	.	(4.c\	Chri-	.	.	8d\L]	-lei-	no-	.	2.g\	Chri-	Do-	.	[2.ee\	Chri-	pa-	.
.	.	.	.	.	.	.	.	.	.	(16ee\	.	.	.	.	.	.	.	.	.	.	.	.	.	.	.	.	.
.	.	.	.	.	.	.	.	8G/	.	16dd#X\	.	.	.	.	.	8c\J	.	.	.	.	.	.	.	.	.	.	.
.	.	.	.	.	.	.	.	.	.	16ee\JJ)	.	.	.	.	.	.	.	.	.	.	.	.	.	.	.	.	.
4r	.	.	.	.	.	.	.	8e 8c/	.	4g/	.	.	.	.	.	4c\	-son	-bis	.	.	.	.	.	.	.	.	.
.	.	.	.	.	.	.	.	8G/	.	.	.	8G\)	-ste	.	.	.	.	.	.	.	.	.	.	.	.	.	.
4r	.	.	.	.	.	.	.	8e 8c/	.	4r	.	8E\	.	.	.	4r	.	.	.	.	.	.	.	.	.	.	.
.	.	.	.	.	.	.	.	8G/J)	.	.	.	8C\	e-	.	.	.	.	.	.	.	.	.	.	.	.	.	.
=24	=24	=24	=24	=24	=24	=24	=24	=24	=24	=24	=24	=24	=24	=24	=24	=24	=24	=24	=24	=24	=24	=24	=24	=24	=24	=24	=24
2F\	.	.	2.r	2.r	.	2.c\]	.	(8dL 8c/	.	8r	.	4F\	-lej-	.	.	4r	.	.	.	4a\	-ste	-na	.	8ee\L]	.	.	.
.	.	.	.	.	.	.	.	8A/	.	8a\L	.	.	.	.	.	.	.	.	.	.	.	.	.	8dd\J	.	.	.
.	.	.	.	.	.	.	.	8d 8c/	.	8aa\	.	4F\	-son	.	.	4r	.	.	.	4a\	.	no-	.	4.dd\	-ste	-cem	.
.	.	.	.	.	.	.	.	8A/	.	8ff\J	.	.	.	.	.	.	.	.	.	.	.	.	.	.	.	.	.
4F#X\	6	.	.	.	.	.	.	8d 8c/	.	(8dd\L	.	4F#X\	e-	.	.	4c\	e-	.	.	4a\	e-	-bis	.	.	.	.	.
.	-7	.	.	.	.	.	.	8A/J)	.	8ee-X\J)	.	.	.	.	.	.	.	.	.	.	.	.	.	8ee-X\	e-	da	.
=25	=25	=25	=25	=25	=25	=25	=25	=25	=25	=25	=25	=25	=25	=25	=25	=25	=25	=25	=25	=25	=25	=25	=25	=25	=25	=25	=25
8G\L	n6 4	.	2.r	2.r	.	2c\	.	(8eL 8c/	.	8r	.	[2.G\	-lei-	.	.	2c\	-lei-	.	.	2.g\	-lei-	pa-	.	(2een\	-lei-	pa-	.
8G\	.	.	.	.	.	.	.	8G/	.	8een\L	.	.	.	.	.	.	.	.	.	.	.	.	.	.	.	.	.
8G\	.	.	.	.	.	.	.	8e 8c/	.	8gg\	.	.	.	.	.	.	.	.	.	.	.	.	.	.	.	.	.
8G\J	.	.	.	.	.	.	.	8G/J)	.	8ee\J	.	.	.	.	.	.	.	.	.	.	.	.	.	.	.	.	.
*Xtremolo	*	*	*	*	*	*	*	*Xtremolo	*	*	*	*	*	*	*	*	*	*	*	*	*	*	*	*	*	*	*
8G\L	7 5	.	.	.	.	8Bn\L	.	8d/L	.	(8ff\L	.	.	.	.	.	8d\L	.	.	.	.	.	.	.	8ff\L	.	.	.
8G\J	6 4	.	.	.	.	8c\J	.	8c/J	.	8ee\J	.	.	.	.	.	8c\J	.	.	.	.	.	.	.	8ee\J)	.	.	.
=26	=26	=26	=26	=26	=26	=26	=26	=26	=26	=26	=26	=26	=26	=26	=26	=26	=26	=26	=26	=26	=26	=26	=26	=26	=26	=26	=26
*	*	*	*8\right	*8\right	*	*	*	*8\right	*	*	*	*	*	*	*	*	*	*	*	*	*	*	*	*	*	*	*
!	!	!	!	!	!	!	!	!LO:TX:a:t=P:problem:mixed beam	!	!	!	!	!	!	!	!	!	!	!	!	!	!	!	!	!	!	!
8G\L	.	.	8.g\L	8.ggL 8.bX\	.	8G/L	.	8Bn/L	.	8dd\L)	.	4.G\]	-son	.	.	4.Bn\	-son	.	.	4.g\	-son	-cem	.	4.dd\	-son	-cem	.
*16\right	*	*	*	*	*	*	*	*	*	*	*	*	*	*	*	*	*	*	*	*	*	*	*	*	*	*	*
16d\L	.	.	.	.	.	16d/L	.	16dd\L	.	16ddd\L	.	.	.	.	.	.	.	.	.	.	.	.	.	.	.	.	.
*	*	*	*16\right	*16\right	*	*	*	*	*	*	*	*	*	*	*	*	*	*	*	*	*	*	*	*	*	*	*
16Bn\JJ	.	.	16g\Jk	16ggJk 16b\	.	16Bn/JJ	.	16bn\JJ	.	16bbn\JJ	.	.	.	.	.	.	.	.	.	.	.	.	.	.	.	.	.
8G\L	.	.	4g\	4gg 4b\	.	8G/L	.	8g/L	.	8gg\L	.	.	.	.	.	.	.	.	.	.	.	.	.	.	.	.	.
8BBn\	.	.	.	.	.	8Bn 8G/	.	8d/	.	8ff 8g'\	.	8BBn/	Chri-	.	.	8d\	Chri-	.	.	8g\	Chri-	.	.	8ff\	Chri-	da	.
8BB\	6 5	.	4r	4r	.	8B 8G/	.	8d/	.	8ff 8g'\	.	8BB/	-ste	.	.	8d\	-ste	.	.	8g\	-ste	.	.	8ff\	-ste	pa-	.
8BB\J	.	.	.	.	.	8BJ 8G/	.	8d/J	.	8ffJ 8g'\	.	8BB/	e-	.	.	8d\	e-	.	.	8g\	e-	.	.	8ff\	e-	-cem	.
=27	=27	=27	=27	=27	=27	=27	=27	=27	=27	=27	=27	=27	=27	=27	=27	=27	=27	=27	=27	=27	=27	=27	=27	=27	=27	=27	=27
!!LO:PB:g=original
*tremolo	*	*	*	*	*	*	*	*tremolo	*	*tremolo	*	*	*	*	*	*	*	*	*	*	*	*	*	*	*	*	*
!	!	!	!	!	!	!LO:TX:a:t=P:problem:mixed beam	!	!	!	!	!	!	!	!	!	!	!	!	!	!	!	!	!	!	!	!	!
8C\L	.	.	2.r	2.r	.	8c\L	.	8c/L	.	8eeL 8g\	.	8C/L	-lei-	.	.	2c\	-lei-	.	.	2.g\	-lei-	.	.	(2ee\	-lei-	pa-	.
8E\J	.	.	.	.	.	8E/J	.	8c/	.	8ee 8g\	.	8E/J	.	.	.	.	.	.	.	.	.	.	.	.	.	.	.
8G\L	6 4	.	.	.	.	8G/L	.	8c/	.	8ee 8g\	.	2G\	.	.	.	.	.	.	.	.	.	.	.	.	.	.	.
8G\	.	.	.	.	.	8G/	.	8c/J	.	8eeJ 8g\	.	.	.	.	.	.	.	.	.	.	.	.	.	.	.	.	.
*	*	*	*	*	*	*	*	*Xtremolo	*	*Xtremolo	*	*	*	*	*	*	*	*	*	*	*	*	*	*	*	*	*
8G\	5 3	.	.	.	.	8G/	.	8dL 8Bn/	.	8ddL 8g\	.	.	.	.	.	4Bn\	-son	.	.	.	.	.	.	4dd\)	.	.	.
8G\J	.	.	.	.	.	8G/J	.	8dJ 8B/	.	8ddJ 8g\	.	.	.	.	.	.	.	.	.	.	.	.	.	.	.	.	.
=28	=28	=28	=28	=28	=28	=28	=28	=28	=28	=28	=28	=28	=28	=28	=28	=28	=28	=28	=28	=28	=28	=28	=28	=28	=28	=28	=28
*	*	*	*	*	*	*	*	*tremolo	*	*	*	*	*	*	*	*	*	*	*	*	*	*	*	*	*	*	*
!LO:TX:a:t=tasto solo	!	!	!	!	!	!	!	!	!	!	!	!	!	!	!	!	!	!	!	!	!	!	!	!	!	!	!
4C/	.	.	2.r	2.r	.	2.c\	.	8eL 8c/	.	16cc'\LL	fp	2C/	-son	.	.	(4.c\	Chri-	.	.	2g\	-son	.	.	2ee\	-son	-cem	.
.	.	.	.	.	.	.	.	.	.	(16cc\	.	.	.	.	.	.	.	.	.	.	.	.	.	.	.	.	.
.	.	.	.	.	.	.	.	8G/	.	16bn\	.	.	.	.	.	.	.	.	.	.	.	.	.	.	.	.	.
.	.	.	.	.	.	.	.	.	.	16cc\JJ)	.	.	.	.	.	.	.	.	.	.	.	.	.	.	.	.	.
4r	.	.	.	.	.	.	.	8e 8c/	.	4g/	.	.	.	.	.	.	.	.	.	.	.	.	.	.	.	.	.
.	.	.	.	.	.	.	.	8G/	.	.	.	.	.	.	.	8G\)	.	.	.	.	.	.	.	.	.	.	.
4r	.	.	.	.	.	.	.	8e 8c/	.	4r	.	4r	.	.	.	8e\	-ste	.	.	4r	.	.	.	4r	.	.	.
.	.	.	.	.	.	.	.	8G/J	.	.	.	.	.	.	.	8c\	e-	.	.	.	.	.	.	.	.	.	.
=29	=29	=29	=29	=29	=29	=29	=29	=29	=29	=29	=29	=29	=29	=29	=29	=29	=29	=29	=29	=29	=29	=29	=29	=29	=29	=29	=29
4GG/	.	.	2.r	2.r	.	2.G/	.	8fL 8d/	.	16dd'\LL	.	2.r	.	.	.	(8c\L	-lei-	.	.	2.r	.	.	.	(4.dd\	Chri-	Do-	.
.	.	.	.	.	.	.	.	.	.	(16dd\	.	.	.	.	.	.	.	.	.	.	.	.	.	.	.	.	.
.	.	.	.	.	.	.	.	8G/	.	16cc#X\	.	.	.	.	.	8Bn\J	.	.	.	.	.	.	.	.	.	.	.
.	.	.	.	.	.	.	.	.	.	16dd\JJ)	.	.	.	.	.	.	.	.	.	.	.	.	.	.	.	.	.
4r	.	.	.	.	.	.	.	8f 8d/	.	4g/	.	.	.	.	.	4B\)	-son	.	.	.	.	.	.	.	.	.	.
.	.	.	.	.	.	.	.	8G/	.	.	.	.	.	.	.	.	.	.	.	.	.	.	.	8g\)	.	.	.
4r	.	.	.	.	.	.	.	8f 8d/	.	4r	.	.	.	.	.	4r	.	.	.	.	.	.	.	8ff\	-ste	.	.
.	.	.	.	.	.	.	.	8G/J	.	.	.	.	.	.	.	.	.	.	.	.	.	.	.	8dd\	e-	-na	.
=30	=30	=30	=30	=30	=30	=30	=30	=30	=30	=30	=30	=30	=30	=30	=30	=30	=30	=30	=30	=30	=30	=30	=30	=30	=30	=30	=30
4C/	.	.	2.r	2.r	.	2.c\	.	8eL 8c/	.	16ee'\LL	.	(4.c\	Chri-	.	.	2.e\	Chri-	.	.	2.g\	Chri-	Do-	.	8dd\L	-lej-	no-	.
.	.	.	.	.	.	.	.	.	.	(16ee\	.	.	.	.	.	.	.	.	.	.	.	.	.	.	.	.	.
.	.	.	.	.	.	.	.	8G/	.	16dd#X\	.	.	.	.	.	.	.	.	.	.	.	.	.	8cc\J	.	.	.
.	.	.	.	.	.	.	.	.	.	16ee\JJ)	.	.	.	.	.	.	.	.	.	.	.	.	.	.	.	.	.
4r	.	.	.	.	.	.	.	8e 8c/	.	4g/	.	.	.	.	.	.	.	.	.	.	.	.	.	4cc\	-son	-bis	.
.	.	.	.	.	.	.	.	8G/	.	.	.	8G\)	.	.	.	.	.	.	.	.	.	.	.	.	.	.	.
4r	.	.	.	.	.	.	.	8e 8c/	.	4r	.	8E\	-ste	.	.	.	.	.	.	.	.	.	.	4r	.	.	.
.	.	.	.	.	.	.	.	8G/J	.	.	.	8C\	e-	.	.	.	.	.	.	.	.	.	.	.	.	.	.
=31	=31	=31	=31	=31	=31	=31	=31	=31	=31	=31	=31	=31	=31	=31	=31	=31	=31	=31	=31	=31	=31	=31	=31	=31	=31	=31	=31
2F\	.	.	2.r	2.r	.	2.c\	.	8dL 8c/	.	8r	.	4F\	-lej-	.	.	8e\L	.	.	.	4a\	.	-na	.	4r	.	.	.
.	.	.	.	.	.	.	.	8A/	.	8a\L	.	.	.	.	.	8d\J	.	.	.	.	.	.	.	.	.	.	.
.	.	.	.	.	.	.	.	8d 8c/	.	8aa\	.	4F\	-son	.	.	4.d\	-ste	.	.	4a\	-ste	no-	.	4r	.	.	.
.	.	.	.	.	.	.	.	8A/	.	8ff\J	.	.	.	.	.	.	.	.	.	.	.	.	.	.	.	.	.
4F#X\	6	.	.	.	.	.	.	8d 8c/	.	8dd\L	.	4F#X\	e-	.	.	.	.	.	.	4a\	e-	-bis	.	4cc\	e-	pa-	.
.	-7	.	.	.	.	.	.	8A/J	.	8ee-X\J	.	.	.	.	.	8e-X\	e-	.	.	.	.	.	.	.	.	.	.
=32	=32	=32	=32	=32	=32	=32	=32	=32	=32	=32	=32	=32	=32	=32	=32	=32	=32	=32	=32	=32	=32	=32	=32	=32	=32	=32	=32
8G\L	n6 4	.	2.r	2.r	.	(2c\	.	8eL 8c/	.	8r	.	2.G\	-lej-	.	.	2en\	-lei-	.	.	2.g\	-lei-	pa-	.	2cc\	-lej-	.	.
8G\	.	.	.	.	.	.	.	8G/	.	8een\L	<	.	.	.	.	.	.	.	.	.	.	.	.	.	.	.	.
8G\	.	.	.	.	.	.	.	8e 8c/	.	8gg\	.	.	.	.	.	.	.	.	.	.	.	.	.	.	.	.	.
8G\J	.	.	.	.	.	.	.	8G/J	.	8ee\J	.	.	.	.	.	.	.	.	.	.	.	.	.	.	.	.	.
*Xtremolo	*	*	*	*	*	*	*	*	*	*	*	*	*	*	*	*	*	*	*	*	*	*	*	*	*	*	*
8G\L	7 5	.	.	.	.	8Bn\L	.	8d/L	.	8ff\L	.	.	.	.	.	8f\L	.	.	.	.	.	.	.	8dd\L	.	.	.
8G\J	6 4	.	.	.	.	8c\J)	.	8c/J	.	8ee\J	[[	.	.	.	.	8e\J	.	.	.	.	.	.	.	8cc\J	.	.	.
=33	=33	=33	=33	=33	=33	=33	=33	=33	=33	=33	=33	=33	=33	=33	=33	=33	=33	=33	=33	=33	=33	=33	=33	=33	=33	=33	=33
!	!	!	!	!	!	!	!	!LO:TX:a:t=P:problem:mixed beam	!	!	!LO:DY:rj	!	!	!	!	!	!	!	!	!	!	!	!	!	!	!	!
8G\L	.	.	8.g\L	8.ggL 8.bX\	.	8G/L	.	8Bn/L	.	8dd\L	f	4.G\	-son	.	.	4.d\	-son	.	.	[4.g\	-son	-cem	.	4.bn\	-son	.	.
16d\L	.	.	.	.	.	16d/L	.	16dd\L	.	16ddd\L	.	.	.	.	.	.	.	.	.	.	.	.	.	.	.	.	.
16Bn\JJ	.	.	16g\Jk	16ggJk 16b\	.	16Bn/JJ	.	16bn\JJ	.	16bbn\JJ	.	.	.	.	.	.	.	.	.	.	.	.	.	.	.	.	.
!LO:TX:a:t=P:problem:mixed beam	!	!	!	!	!	!	!	!	!	!	!	!	!	!	!	!	!	!	!	!	!	!	!	!	!	!	!
8G\L	.	.	8g\L	8ggL 8b\	.	8G/L	.	8g/L	.	8gg\L	.	.	.	.	.	.	.	.	.	.	.	.	.	.	.	.	.
!LO:SIC:s=8BB:v	!	!	!	!	!	!	!	!	!	!	!	!	!	!	!	!	!	!	!	!	!	!	!	!	!	!	!
8BB-/	6 5	.	8g\	8ff 8dd\	.	8B/	.	8d/	.	8ff 8g\	.	8BBn/	Chri-	.	.	8f\	Chri-	.	.	8g\]	Chri-	.	.	8dd\	Chri-	-cem	.
!LO:SIC:s=8BB:v	!	!	!	!	!	!	!	!	!	!	!	!	!	!	!	!	!	!	!	!	!	!	!	!	!	!	!
8BB-/	.	.	8g\	8ff 8dd\	.	8B/	.	8d/	.	8ff 8g\	.	8BB/	-ste	.	.	8f\	-ste	.	.	8g\	-ste	.	.	8dd\	-ste	da	.
!LO:SIC:s=8BB:v	!	!	!	!	!	!	!	!	!	!	!	!	!	!	!	!	!	!	!	!	!	!	!	!	!	!	!
8BB-/J	.	.	8g\J	8ffJ 8dd\	.	8B/J	.	8d/J	.	8ffJ 8g\	.	8BB/	e-	.	.	8f\	e-	.	.	8g\	e-	.	.	8dd\	e-	pa-	.
=34	=34	=34	=34	=34	=34	=34	=34	=34	=34	=34	=34	=34	=34	=34	=34	=34	=34	=34	=34	=34	=34	=34	=34	=34	=34	=34	=34
!!LO:PB:g=original
*	*	*	*	*^	*	*	*	*	*	*	*	*	*	*	*	*	*	*	*	*	*	*	*	*	*	*	*
8C\L	.	.	4g 4c\	2ee 2cc\	2ryy	.	8c/L	.	2c/	.	2ee 2g\	.	8C\L	-lej-	.	.	2e\	-lej-	.	.	2g\	-lej-	.	.	2cc\	-lej-	-cem	.
8E\J	.	.	.	.	.	.	8E/J	.	.	.	.	.	8E\J	.	.	.	.	.	.	.	.	.	.	.	.	.	.	.
*tremolo	*	*	*	*	*	*	*	*	*	*	*	*	*	*	*	*	*	*	*	*	*	*	*	*	*	*	*	*
8G\L	6 4	.	2g\	.	.	.	8G/L	.	.	.	.	.	2G\	.	.	.	.	.	.	.	.	.	.	.	.	.	.	.
8G\	7 5	.	.	.	.	.	8G/	.	.	.	.	.	.	.	.	.	.	.	.	.	.	.	.	.	.	.	.	.
8G\	.	.	.	8.dd/L	8.bX\L	.	8G/	.	8.dL 8.Bn/	.	8.ddL 8.g\	.	.	.	.	.	8.d\L	.	.	.	8.f\L	.	.	.	8.bn\L	.	.	.
8G\J	.	.	.	.	.	.	8G/J	.	.	.	.	.	.	.	.	.	.	.	.	.	.	.	.	.	.	.	.	.
*	*	*	*	*	*	*	*	*	*	*	*	*	*	*	*	*	*16\right	*	*	*	*16\right	*	*	*	*16right	*	*	*
.	.	.	.	16cc/Jk	16cc\Jk	.	.	.	16eJk 16c/	.	16cc\Jk	.	.	.	.	.	16c\Jk	.	.	.	16e\Jk	.	.	.	16cc\Jk	.	pa-	.
=35	=35	=35	=35	=35	=35	=35	=35	=35	=35	=35	=35	=35	=35	=35	=35	=35	=35	=35	=35	=35	=35	=35	=35	=35	=35	=35	=35	=35
*	*	*	*^	*	*	*	*	*	*	*	*	*	*	*	*	*	*	*	*	*	*	*	*	*	*	*	*	*
!	!	!	!	!	!	!	!	!	!	!	!	!	!	!	!	!	!	!	!	!	!	!	!	!	!	!LO:SIC:l:s=-cem:v	!	!	!
2A\	.	.	2a/	2a\	2cc/	2cc\	.	2A/	.	2e 2c/	.	2cc\	.	2A\	-son	.	.	2c\	-son	.	.	2e\	-son	.	.	2cc\	-son	-mem	.
4G\	#4_ -3_	.	4r	4ryy	4r	4ryy	.	4e\	.	4b-X/	.	4cc#X\	.	4G\	e-	.	.	4B-X\	e-	.	.	4e\	e-	.	.	4cc#X\	e-	da	.
*	*	*	*v	*v	*	*	*	*	*	*	*	*	*	*	*	*	*	*	*	*	*	*	*	*	*	*	*	*	*
*	*	*	*	*v	*v	*	*	*	*	*	*	*	*	*	*	*	*	*	*	*	*	*	*	*	*	*	*	*
=36	=36	=36	=36	=36	=36	=36	=36	=36	=36	=36	=36	=36	=36	=36	=36	=36	=36	=36	=36	=36	=36	=36	=36	=36	=36	=36	=36
8.G\L	.	.	2.r	2.r	.	8.e\L	.	8.b-X/L	.	8.cc#X\L	.	8.G\L	-lei-	.	.	8.B-\L	-lej-	.	.	8.e\L	-lej-	.	.	8.cc#X\L	-lej-	pa-	.
*	*	*	*	*	*	*16\right	*	*	*	*	*	*16\right	*	*	*	*	*	*	*	*	*	*	*	*	*	*	*
16F\Jk	6_	.	.	.	.	16f\Jk	.	16a/Jk	.	16dd\Jk	.	16F\Jk	.	.	.	16A\Jk	.	.	.	16f\Jk	.	.	.	16dd\Jk	.	.	.
4F\	.	.	.	.	.	4f\	.	4a/	.	4dd\	.	4F\	-son	.	.	4A\	-son	.	.	4f\	-son	.	.	4dd\	-son	-cem	.
4r	X	.	.	.	.	4r	.	4r	.	4r	.	4G\	e	.	.	4B-X\	e	.	.	4e\	e	.	.	4cc#X\	e-	da	.
=37	=37	=37	=37	=37	=37	=37	=37	=37	=37	=37	=37	=37	=37	=37	=37	=37	=37	=37	=37	=37	=37	=37	=37	=37	=37	=37	=37
!	!	!	!	!	!	!	!	!	!	!	!	!	!	!	!	!	!	!	!	!	!	!	!	!	!	!	!LO:DY:rj
4r	.	.	2.r	2.r	.	4r	.	4r	.	4r	.	8.G\L	.	.	.	8.B-X\L	.	.	.	8.e\L	.	.	.	8cc#X\L	-lei-	pa-	p
.	.	.	.	.	.	.	.	.	.	.	.	.	.	.	.	.	.	.	.	.	.	.	.	8dd\J	.	.	.
.	.	.	.	.	.	.	.	.	.	.	.	16F\Jk	.	.	.	16A\Jk	.	.	.	16f\Jk	.	.	.	.	.	.	.
4r	.	.	.	.	.	4r	.	4r	.	4r	.	4F\	.	.	.	4A\	.	.	.	4f\	.	.	.	4dd\	-son	-cem	.
(4D\	.	.	.	.	.	4D/	.	8a/L	.	(8ff\L	.	4D\	.	.	.	4A\	.	.	.	8a\L	.	.	.	(8ff\L	e-	da	.
.	.	.	.	.	.	.	.	8f/J	.	8dd\J)	.	.	.	.	.	.	.	.	.	8f\J	.	.	.	8dd\J)	.	.	.
=38	=38	=38	=38	=38	=38	=38	=38	=38	=38	=38	=38	=38	=38	=38	=38	=38	=38	=38	=38	=38	=38	=38	=38	=38	=38	=38	=38
*	*	*	*	*	*	*	*	*	*	*tremolo	*	*	*	*	*	*	*	*	*	*	*	*	*	*	*	*	*
8G\L)	6 4	.	2.r	2.r	.	8G/L	.	8e/L	.	8cc\L	.	2.G\	.	.	.	2G\	.	.	.	2e\	.	.	.	2ccn\	-lei-	.	.
8G\	.	.	.	.	.	8G/	.	8e/	.	8cc\	.	.	.	.	.	.	.	.	.	.	.	.	.	.	.	.	.
8G\	.	.	.	.	.	8G/	.	8e/	.	8cc\	.	.	.	.	.	.	.	.	.	.	.	.	.	.	.	.	.
8G\	7 5	.	.	.	.	8G/	.	8e/J	.	8cc\J	.	.	.	.	.	.	.	.	.	.	.	.	.	.	.	.	.
8G\	.	.	.	.	.	8G/	.	8.fL 8.d/	.	8.bn\L	.	.	.	.	.	8.d\L	.	.	.	8.f\L	.	.	.	8.bn\L	.	.	.
8G\J	.	.	.	.	.	8G/J	.	.	.	.	.	.	.	.	.	.	.	.	.	.	.	.	.	.	.	.	.
.	.	.	.	.	.	.	.	16e/Jk	.	16cc\Jk	.	.	.	.	.	16c\Jk	.	.	.	16e\Jk	.	.	.	16cc\Jk	.	pa-	.
=39	=39	=39	=39	=39	=39	=39	=39	=39	=39	=39	=39	=39	=39	=39	=39	=39	=39	=39	=39	=39	=39	=39	=39	=39	=39	=39	=39
2A\	.	.	2.r	2.r	.	2A/	.	2e/	.	2cc\	.	2A\	.	.	.	2c\	.	.	.	2e\	.	.	.	2cc\	-son	-cem	.
*	*	*	*	*	*	*	*	*4\right	*	*	*	*	*	*	*	*	*	*	*	*	*	*	*	*	*	*	*
4G\	#4_ -3_	.	.	.	.	4e\	.	4b-X\	.	[4cc#X\	.	4G\	.	.	.	4B-X\	.	.	.	4e\	.	.	.	4cc#X\	e-	da	.
=40	=40	=40	=40	=40	=40	=40	=40	=40	=40	=40	=40	=40	=40	=40	=40	=40	=40	=40	=40	=40	=40	=40	=40	=40	=40	=40	=40
!	!	!	!	!	!	!	!	!	!	!	!	!	!	!	!	!	!	!	!	!	!	!	!	!LO:SIC:s=8.cc#:v	!	!	!
8.G\L	.	.	2.r	2.r	.	8.e\L	.	8.b-/L	.	8.cc#\L]	.	8.G\L	.	.	.	8.B-\L	.	.	.	8.e\L	.	.	.	8.cc\L	-lej-	pa-	.
16F\Jk	6_	.	.	.	.	16f\Jk	.	16a/Jk	.	16dd\Jk	.	16F\Jk	.	.	.	16A\Jk	.	.	.	16f\Jk	.	.	.	16dd\Jk	.	.	.
4F\	.	.	.	.	.	4f\	.	4a/	.	4dd\	.	4F\	.	.	.	4A\	.	.	.	4f\	.	.	.	4dd\	-son	-cem	.
!	!	!	!	!	!	!	!	!	!	!	!	!	!	!	!	!	!	!	!	!	!	!	!	!	!	!	!LO:DY:a
*	*	*	*	*	*	*	*	*	*	*	*	*	*	*	*	*	*	*	*	*	*	*	*	*	*ij	*	*
4r	X	.	.	.	.	4r	.	4r	.	4r	.	4G\	.	.	.	4B-\	.	.	.	4e\	.	.	.	4cc#X\	e-	.	p
=41	=41	=41	=41	=41	=41	=41	=41	=41	=41	=41	=41	=41	=41	=41	=41	=41	=41	=41	=41	=41	=41	=41	=41	=41	=41	=41	=41
!!LO:PB:g=original
4r	.	.	4r	4r	.	4r	.	4r	.	4r	.	8.G\L	.	.	.	8.B-\L	.	.	.	8.e\L	.	.	.	8.cc#X\L	-lej-	.	.
.	.	.	.	.	.	.	.	.	.	.	.	16F\Jk	.	.	.	16A\Jk	.	.	.	16f\Jk	.	.	.	16dd\Jk	.	.	.
4r	.	.	4r	4r	.	4r	.	4r	.	4r	.	4F\	.	.	.	4A\	.	.	.	4f\	.	.	.	4dd\	-son	.	.
*	*	*	*	*	*	*	*	*	*	*	*	*	*	*	*	*	*	*	*	*	*	*	*	*	*Xij	*	*
4D\	.	.	4a 4f\	8ffL 8a\	.	4D/	.	8a/L	.	8ff\L	.	4D\	.	.	.	4A\	.	.	.	8a\L	.	.	.	8ff\L	e-	da	.
.	.	.	.	8ddJ 8f\	.	.	.	8f/J	.	8dd\J	.	.	.	.	.	.	.	.	.	8f\J	.	.	.	8dd\J	.	.	.
=42	=42	=42	=42	=42	=42	=42	=42	=42	=42	=42	=42	=42	=42	=42	=42	=42	=42	=42	=42	=42	=42	=42	=42	=42	=42	=42	=42
8G\L	6 4	.	2.g\	2cc 2e\	.	8G/L	.	8e/L	.	8cc\L	<	2.G\	.	.	.	2G\	.	.	.	2e\	.	.	.	2ccn\	-lei-	pa-	.
8G\	.	.	.	.	.	8G/	.	8e/	.	8cc\	.	.	.	.	.	.	.	.	.	.	.	.	.	.	.	.	.
8G\	.	.	.	.	.	8G/	.	8e/	.	8cc\	.	.	.	.	.	.	.	.	.	.	.	.	<	.	.	.	.
8G\	.	.	.	.	.	8G/	.	8e/J	.	8cc\J	.	.	.	.	.	.	.	.	.	.	.	.	.	.	.	.	.
8G\	7 5 n	.	.	8.bXL 8.f\	.	8G/	.	8.fL 8.d/	.	8.bn\L	.	.	.	.	.	8.d\L	.	.	.	8.f\L	.	.	.	8.bn\L	.	.	.
8G\J	.	.	.	.	.	8G/J	.	.	.	.	.	.	.	.	.	.	.	.	.	.	.	.	.	.	.	.	.
.	.	.	.	16ccJk 16e\	.	.	.	16e/Jk	.	16cc\Jk	[	.	.	.	.	16c\Jk	.	.	.	16e\Jk	.	.	[[	16cc\Jk	.	.	.
=43	=43	=43	=43	=43	=43	=43	=43	=43	=43	=43	=43	=43	=43	=43	=43	=43	=43	=43	=43	=43	=43	=43	=43	=43	=43	=43	=43
*	*	*	*	*^	*	*	*	*	*	*	*	*	*	*	*	*	*	*	*	*	*	*	*	*	*	*	*
!	!	!	!	!	!	!	!	!	!	!	!	!	!	!	!	!	!	!	!	!	!	!	!	!LO:DY:b:rj:problem:ff na pięciolinii	!	!	!	!LO:DY:rj
8E\L	6	.	2g 2c\	2gg 2cc\	2rfyy	.	8E/L	.	8cc\	.	16gg`\LL	.	2E\	.	.	.	2c\	.	.	.	2g\	.	.	ff	2gg\	-son	-cem	ff
.	.	.	.	.	.	.	.	.	.	.	(16gg\	.	.	.	.	.	.	.	.	.	.	.	.	.	.	.	.	.
8E\	.	.	.	.	.	.	8E/	.	4cc\	.	16ff#X\	.	.	.	.	.	.	.	.	.	.	.	.	.	.	.	.	.
.	.	.	.	.	.	.	.	.	.	.	16gg\JJ)	.	.	.	.	.	.	.	.	.	.	.	.	.	.	.	.	.
8E\	.	.	.	.	.	.	8E/	.	.	.	16ccc'\LL	.	.	.	.	.	.	.	.	.	.	.	.	.	.	.	.	.
.	.	.	.	.	.	.	.	.	.	.	(16gg\	.	.	.	.	.	.	.	.	.	.	.	.	.	.	.	.	.
8E\J	.	.	.	.	.	.	8E/J	.	4cc\	.	16ff#\	.	.	.	.	.	.	.	.	.	.	.	.	.	.	.	.	.
.	.	.	.	.	.	.	.	.	.	.	16gg\JJ)	.	.	.	.	.	.	.	.	.	.	.	.	.	.	.	.	.
*Xtremolo	*	*	*	*	*	*	*Xtremolo	*	*	*	*	*	*	*	*	*	*	*	*	*	*	*	*	*	*	*	*	*
8F\L	5	.	4a 4f\	4ff/	8cc\L	.	8F/L	.	.	.	16aa'\LL	.	4F\	.	.	.	8c\L	.	.	.	4a\	.	.	.	(4ff\	e-	da	.
.	.	.	.	.	.	.	.	.	.	.	(16ff#\	.	.	.	.	.	.	.	.	.	.	.	.	.	.	.	.	.
8F\J	6	.	.	.	8dd\J	.	8F/J	.	8dd\	.	16ee\	.	.	.	.	.	8d\J	.	.	.	.	.	.	.	.	.	.	.
.	.	.	.	.	.	.	.	.	.	.	16ff#\JJ)	.	.	.	.	.	.	.	.	.	.	.	.	.	.	.	.	.
=44	=44	=44	=44	=44	=44	=44	=44	=44	=44	=44	=44	=44	=44	=44	=44	=44	=44	=44	=44	=44	=44	=44	=44	=44	=44	=44	=44	=44
*tremolo	*	*	*	*	*	*	*tremolo	*	*	*	*	*	*	*	*	*	*	*	*	*	*	*	*	*	*	*	*	*
8G\L	6 4	.	2.g\	2ee/	2cc\	.	8G/L	.	16cc\LL	.	16ee'\LL	.	2.G\	.	.	.	2c\	.	.	.	2.g\	.	.	.	2ee\)	-lei-	pa-	.
.	.	.	.	.	.	.	.	.	16ee\	.	(16gg\	.	.	.	.	.	.	.	.	.	.	.	.	.	.	.	.	.
8G\	.	.	.	.	.	.	8G/	.	16dd#X\	.	16ff#X\	.	.	.	.	.	.	.	.	.	.	.	.	.	.	.	.	.
.	.	.	.	.	.	.	.	.	16ee\JJ	.	16gg\JJ)	.	.	.	.	.	.	.	.	.	.	.	.	.	.	.	.	.
8G\	.	.	.	.	.	.	8G/	.	16ee\LL	.	16gg'\LL	.	.	.	.	.	.	.	.	.	.	.	.	.	.	.	.	.
.	.	.	.	.	.	.	.	.	16cc\	.	(16ee\	.	.	.	.	.	.	.	.	.	.	.	.	.	.	.	.	.
8G\J	.	.	.	.	.	.	8G/	.	16bn\	.	16dd#X\	.	.	.	.	.	.	.	.	.	.	.	.	.	.	.	.	.
.	.	.	.	.	.	.	.	.	16cc\JJ	.	16ee\JJ)	.	.	.	.	.	.	.	.	.	.	.	.	.	.	.	.	.
!	!	!	!	!	!	!	!	!	!LO:SIC:s=16dd:v	!	!LO:SIC:s=16ff:v	!	!	!	!	!	!	!	!	!	!	!	!	!	!	!	!	!
*Xtremolo	*	*	*	*	*	*	*	*	*	*	*	*	*	*	*	*	*	*	*	*	*	*	*	*	*	*	*	*
8GG/L	7 n	.	.	4dd/	4bX\	.	8G/	.	16dd#\LL	.	16ff#'\LL	.	.	.	.	.	4Bn\	.	.	.	.	.	.	.	4dd\	.	.	.
!	!	!	!	!	!	!	!	!	!	!	!LO:SIC:s=16dd:v	!	!	!	!	!	!	!	!	!	!	!	!	!	!	!	!	!
.	.	.	.	.	.	.	.	.	16b\	.	(16dd#\	.	.	.	.	.	.	.	.	.	.	.	.	.	.	.	.	.
8GG/J	.	.	.	.	.	.	8G/J	.	16a#X\	.	16cc#X\	.	.	.	.	.	.	.	.	.	.	.	.	.	.	.	.	.
!	!	!	!	!	!	!	!	!	!	!	!LO:SIC:s=16dd:v	!	!	!	!	!	!	!	!	!	!	!	!	!	!	!	!	!
.	.	.	.	.	.	.	.	.	16b\JJ	.	16dd#\JJ)	.	.	.	.	.	.	.	.	.	.	.	.	.	.	.	.	.
*	*	*	*	*v	*v	*	*	*	*	*	*	*	*	*	*	*	*	*	*	*	*	*	*	*	*	*	*	*
=45	=45	=45	=45	=45	=45	=45	=45	=45	=45	=45	=45	=45	=45	=45	=45	=45	=45	=45	=45	=45	=45	=45	=45	=45	=45	=45	=45
*^	*	*	*	*	*	*	*	*	*	*	*	*	*	*	*	*	*	*	*	*	*	*	*	*	*	*	*
(2.c/	2C\	.	.	2g 2c\	2cc\	.	2.c\	.	(2.e/	.	16cc`\LL	.	2C/	.	.	.	2c\	.	.	.	2g\	.	.	.	2cc\	-son	-cem	.
.	.	.	.	.	.	.	.	.	.	.	(16cc\	.	.	.	.	.	.	.	.	.	.	.	.	.	.	.	.	.
.	.	.	.	.	.	.	.	.	.	.	16bn\	.	.	.	.	.	.	.	.	.	.	.	.	.	.	.	.	.
.	.	.	.	.	.	.	.	.	.	.	16cc\JJ)	.	.	.	.	.	.	.	.	.	.	.	.	.	.	.	.	.
.	.	.	.	.	.	.	.	.	.	.	16ee'\LL	.	.	.	.	.	.	.	.	.	.	.	.	.	.	.	.	.
.	.	.	.	.	.	.	.	.	.	.	(16cc\	.	.	.	.	.	.	.	.	.	.	.	.	.	.	.	.	.
.	.	.	.	.	.	.	.	.	.	.	16b\	.	.	.	.	.	.	.	.	.	.	.	.	.	.	.	.	.
.	.	.	.	.	.	.	.	.	.	.	16cc\JJ)	.	.	.	.	.	.	.	.	.	.	.	.	.	.	.	.	.
.	4r	.	.	4r	4r	.	.	.	.	.	16dd\LL	.	4r	.	.	.	4r	.	.	.	4r	.	.	.	4r	.	.	.
.	.	.	.	.	.	.	.	.	.	.	16cc\	.	.	.	.	.	.	.	.	.	.	.	.	.	.	.	.	.
.	.	.	.	.	.	.	.	.	.	.	16b\	.	.	.	.	.	.	.	.	.	.	.	.	.	.	.	.	.
.	.	.	.	.	.	.	.	.	.	.	16cc\JJ	.	.	.	.	.	.	.	.	.	.	.	.	.	.	.	.	.
=46	=46	=46	=46	=46	=46	=46	=46	=46	=46	=46	=46	=46	=46	=46	=46	=46	=46	=46	=46	=46	=46	=46	=46	=46	=46	=46	=46	=46
!	!	!	!	!	!	!	!	!	!	!	!LO:TX:a:t=h	!	!	!	!	!	!	!	!	!	!	!	!	!	!	!	!	!
(2.d/)	2.r	.	.	2.r	2.r	.	2.d\	.	2.f/)	.	16bn'\LL	.	2.r	.	.	.	2.r	.	.	.	2.r	.	.	.	2.r	.	.	.
.	.	.	.	.	.	.	.	.	.	.	(16b\	.	.	.	.	.	.	.	.	.	.	.	.	.	.	.	.	.
.	.	.	.	.	.	.	.	.	.	.	16a\	.	.	.	.	.	.	.	.	.	.	.	.	.	.	.	.	.
.	.	.	.	.	.	.	.	.	.	.	16b\JJ)	.	.	.	.	.	.	.	.	.	.	.	.	.	.	.	.	.
.	.	.	.	.	.	.	.	.	.	.	16ff'\LL	.	.	.	.	.	.	.	.	.	.	.	.	.	.	.	.	.
.	.	.	.	.	.	.	.	.	.	.	(16b\	.	.	.	.	.	.	.	.	.	.	.	.	.	.	.	.	.
.	.	.	.	.	.	.	.	.	.	.	16a\	.	.	.	.	.	.	.	.	.	.	.	.	.	.	.	.	.
.	.	.	.	.	.	.	.	.	.	.	16b\JJ)	.	.	.	.	.	.	.	.	.	.	.	.	.	.	.	.	.
.	.	.	.	.	.	.	.	.	.	.	16cc'\LL	.	.	.	.	.	.	.	.	.	.	.	.	.	.	.	.	.
.	.	.	.	.	.	.	.	.	.	.	(16b\	.	.	.	.	.	.	.	.	.	.	.	.	.	.	.	.	.
.	.	.	.	.	.	.	.	.	.	.	16a\	.	.	.	.	.	.	.	.	.	.	.	.	.	.	.	.	.
.	.	.	.	.	.	.	.	.	.	.	16b\JJ)	.	.	.	.	.	.	.	.	.	.	.	.	.	.	.	.	.
=47	=47	=47	=47	=47	=47	=47	=47	=47	=47	=47	=47	=47	=47	=47	=47	=47	=47	=47	=47	=47	=47	=47	=47	=47	=47	=47	=47	=47
(2.e/)	2.r	.	.	2.r	2.r	.	2.e\	.	2.g/	.	16b-X`\LL	.	2.r	.	.	.	2.r	.	.	.	2.r	.	.	.	2.r	.	.	.
.	.	.	.	.	.	.	.	.	.	.	(16b-\	.	.	.	.	.	.	.	.	.	.	.	.	.	.	.	.	.
.	.	.	.	.	.	.	.	.	.	.	16a\	.	.	.	.	.	.	.	.	.	.	.	.	.	.	.	.	.
.	.	.	.	.	.	.	.	.	.	.	16b-\JJ)	.	.	.	.	.	.	.	.	.	.	.	.	.	.	.	.	.
.	.	.	.	.	.	.	.	.	.	.	(16gg\LL	.	.	.	.	.	.	.	.	.	.	.	.	.	.	.	.	.
.	.	.	.	.	.	.	.	.	.	.	16b-\	.	.	.	.	.	.	.	.	.	.	.	.	.	.	.	.	.
.	.	.	.	.	.	.	.	.	.	.	16a\	.	.	.	.	.	.	.	.	.	.	.	.	.	.	.	.	.
.	.	.	.	.	.	.	.	.	.	.	16b-\JJ)	.	.	.	.	.	.	.	.	.	.	.	.	.	.	.	.	.
.	.	.	.	.	.	.	.	.	.	.	(16cc\LL	.	.	.	.	.	.	.	.	.	.	.	.	.	.	.	.	.
.	.	.	.	.	.	.	.	.	.	.	16b-\	.	.	.	.	.	.	.	.	.	.	.	.	.	.	.	.	.
.	.	.	.	.	.	.	.	.	.	.	16a\	.	.	.	.	.	.	.	.	.	.	.	.	.	.	.	.	.
.	.	.	.	.	.	.	.	.	.	.	16b-\JJ)	.	.	.	.	.	.	.	.	.	.	.	.	.	.	.	.	.
=48	=48	=48	=48	=48	=48	=48	=48	=48	=48	=48	=48	=48	=48	=48	=48	=48	=48	=48	=48	=48	=48	=48	=48	=48	=48	=48	=48	=48
!!LO:PB:g=original
2f/)	2.r	.	.	2.r	2.r	.	2f\	.	2f/	.	(16a/LL	.	2F\	.	.	.	2A\	.	.	.	2f\	.	.	.	2f/	Ky-	do-	.
.	.	.	.	.	.	.	.	.	.	.	16a/	.	.	.	.	.	.	.	.	.	.	.	.	.	.	.	.	.
.	.	.	.	.	.	.	.	.	.	.	16g#X/	.	.	.	.	.	.	.	.	.	.	.	.	.	.	.	.	.
.	.	.	.	.	.	.	.	.	.	.	16a/JJ	.	.	.	.	.	.	.	.	.	.	.	.	.	.	.	.	.
.	.	.	.	.	.	.	.	.	.	.	4f/)	.	.	.	.	.	.	.	.	.	.	.	.	.	.	.	.	.
4r	.	.	.	.	.	.	4r	.	4r	.	4r	.	4F\	.	.	.	4A\	.	.	.	4f\	.	.	.	4f/	-ri-	-na	.
*v	*v	*	*	*	*	*	*	*	*	*	*	*	*	*	*	*	*	*	*	*	*	*	*	*	*	*	*	*
=49	=49	=49	=49	=49	=49	=49	=49	=49	=49	=49	=49	=49	=49	=49	=49	=49	=49	=49	=49	=49	=49	=49	=49	=49	=49	=49	=49
2.r	.	.	2.r	2.r	.	2.r	.	2.r	.	2.r	.	2F\	.	.	.	2B-X\	.	.	.	2e\	.	.	.	2g/	.	no-	.
.	.	.	.	.	.	.	.	.	.	.	.	4F\	.	.	.	4c\	.	.	.	4e-X\	.	.	.	4a/	-e	-bis	.
=50	=50	=50	=50	=50	=50	=50	=50	=50	=50	=50	=50	=50	=50	=50	=50	=50	=50	=50	=50	=50	=50	=50	=50	=50	=50	=50	=50
2.r	.	.	2.r	2.r	.	2.r	.	2.r	.	2.r	.	2.F\	.	.	.	2d\	.	.	.	2d\	.	.	.	2.b-\	lei-	pa-	.
.	.	.	.	.	.	.	.	.	.	.	.	.	.	.	.	4d-X\	.	.	.	4en\	.	.	.	.	.	.	.
=51	=51	=51	=51	=51	=51	=51	=51	=51	=51	=51	=51	=51	=51	=51	=51	=51	=51	=51	=51	=51	=51	=51	=51	=51	=51	=51	=51
!	!	!	!	!	!	!	!LO:DY:a	!	!	!	!	!	!	!	!	!	!	!	!	!	!	!	!	!	!	!	!
4.F\	5_	.	2.r	2.r	.	2.A 2.F/	p	(16A/LL	.	4r	.	2F\	.	.	.	2c\	.	.	.	2f\	.	.	.	2a\	-son	-cem	.
.	.	.	.	.	.	.	.	16c/	.	.	.	.	.	.	.	.	.	.	.	.	.	.	.	.	.	.	.
.	.	.	.	.	.	.	.	16f/	.	.	.	.	.	.	.	.	.	.	.	.	.	.	.	.	.	.	.
.	.	.	.	.	.	.	.	16c/JJ)	.	.	.	.	.	.	.	.	.	.	.	.	.	.	.	.	.	.	.
.	.	.	.	.	.	.	.	(16f/LL	.	4r	.	.	.	.	.	.	.	.	.	.	.	.	.	.	.	.	.
.	.	.	.	.	.	.	.	16c/	.	.	.	.	.	.	.	.	.	.	.	.	.	.	.	.	.	.	.
8c\L	.	.	.	.	.	.	.	16A/	.	.	.	.	.	.	.	.	.	.	.	.	.	.	.	.	.	.	.
.	.	.	.	.	.	.	.	16c/JJ)	.	.	.	.	.	.	.	.	.	.	.	.	.	.	.	.	.	.	.
8A\	.	.	.	.	.	.	.	(16A/LL	.	(4aa\	.	4r	.	.	.	4r	.	.	.	4r	.	.	.	4r	.	.	.
.	.	.	.	.	.	.	.	16c/	.	.	.	.	.	.	.	.	.	.	.	.	.	.	.	.	.	.	.
8F\J	.	.	.	.	.	.	.	16f/	.	.	.	.	.	.	.	.	.	.	.	.	.	.	.	.	.	.	.
.	X	.	.	.	.	.	.	16c/JJ)	.	.	.	.	.	.	.	.	.	.	.	.	.	.	.	.	.	.	.
=52	=52	=52	=52	=52	=52	=52	=52	=52	=52	=52	=52	=52	=52	=52	=52	=52	=52	=52	=52	=52	=52	=52	=52	=52	=52	=52	=52
*tremolo	*	*	*	*	*	*	*	*	*	*	*	*	*	*	*	*	*	*	*	*	*	*	*	*	*	*	*
8E\L	6 5	.	2.r	2.r	.	2.B- 2.G/	.	(16B-X/LL	.	4.gg\)	.	2E\	.	.	.	2c\	.	.	.	2g\	.	.	.	2b-X\	Ky-	do-	.
.	.	.	.	.	.	.	.	16c/	.	.	.	.	.	.	.	.	.	.	.	.	.	.	.	.	.	.	.
8C\	.	.	.	.	.	.	.	16B-/	.	.	.	.	.	.	.	.	.	.	.	.	.	.	.	.	.	.	.
.	.	.	.	.	.	.	.	16c/	.	.	.	.	.	.	.	.	.	.	.	.	.	.	.	.	.	.	.
8E\	.	.	.	.	.	.	.	16B-/	.	.	.	.	.	.	.	.	.	.	.	.	.	.	.	.	.	.	.
.	.	.	.	.	.	.	.	16c/	.	.	.	.	.	.	.	.	.	.	.	.	.	.	.	.	.	.	.
8C\	.	.	.	.	.	.	.	16B-/	.	(8ccc\L	.	.	.	.	.	.	.	.	.	.	.	.	.	.	.	.	.
.	.	.	.	.	.	.	.	16c/	.	.	.	.	.	.	.	.	.	.	.	.	.	.	.	.	.	.	.
8E\	.	.	.	.	.	.	.	16B-/	.	8bb-\	.	4E\	.	.	.	4c\	.	.	.	4g\	.	.	.	4cc\	-ri-	-na	.
.	.	.	.	.	.	.	.	16c/	.	.	.	.	.	.	.	.	.	.	.	.	.	.	.	.	.	.	.
8C\J	.	.	.	.	.	.	.	16B-/	.	8gg\J	.	.	.	.	.	.	.	.	.	.	.	.	.	.	.	.	.
.	.	.	.	.	.	.	.	16c/JJ)	.	.	.	.	.	.	.	.	.	.	.	.	.	.	.	.	.	.	.
=53	=53	=53	=53	=53	=53	=53	=53	=53	=53	=53	=53	=53	=53	=53	=53	=53	=53	=53	=53	=53	=53	=53	=53	=53	=53	=53	=53
4.F\	5_	.	2.r	2.r	.	2.A 2.F/	.	16A/LL	.	2ff\)	.	2F\	.	.	.	2c\	.	.	.	2f\	.	.	.	2a\	-e	no-	.
.	.	.	.	.	.	.	.	16c/	.	.	.	.	.	.	.	.	.	.	.	.	.	.	.	.	.	.	.
.	.	.	.	.	.	.	.	16f/	.	.	.	.	.	.	.	.	.	.	.	.	.	.	.	.	.	.	.
.	.	.	.	.	.	.	.	16c/JJ	.	.	.	.	.	.	.	.	.	.	.	.	.	.	.	.	.	.	.
.	.	.	.	.	.	.	.	16f/LL	.	.	.	.	.	.	.	.	.	.	.	.	.	.	.	.	.	.	.
.	.	.	.	.	.	.	.	16c/	.	.	.	.	.	.	.	.	.	.	.	.	.	.	.	.	.	.	.
8c\L	.	.	.	.	.	.	.	16A/	.	.	.	.	.	.	.	.	.	.	.	.	.	.	.	.	.	.	.
.	.	.	.	.	.	.	.	16c/JJ	.	.	.	.	.	.	.	.	.	.	.	.	.	.	.	.	.	.	.
8A\	.	.	.	.	.	.	.	16A/LL	.	(4aa\	.	4F\	.	.	.	4c\	.	.	.	4f\	.	.	.	4a\	e-	-bis	.
.	.	.	.	.	.	.	.	16c/	.	.	.	.	.	.	.	.	.	.	.	.	.	.	.	.	.	.	.
8F\J	.	.	.	.	.	.	.	16f/	.	.	.	.	.	.	.	.	.	.	.	.	.	.	.	.	.	.	.
.	.	.	.	.	.	.	.	16c/JJ	.	.	.	.	.	.	.	.	.	.	.	.	.	.	.	.	.	.	.
=54	=54	=54	=54	=54	=54	=54	=54	=54	=54	=54	=54	=54	=54	=54	=54	=54	=54	=54	=54	=54	=54	=54	=54	=54	=54	=54	=54
8E\L	6 5	.	2.r	2.r	.	2.B- 2.G/	.	(16B-/LL	.	4.gg\)	.	2.E\	.	.	.	2.c\	.	.	.	2.g\	.	.	.	(2b-\	-lei-	pa-	.
.	.	.	.	.	.	.	.	16c/	.	.	.	.	.	.	.	.	.	.	.	.	.	.	.	.	.	.	.
8C\	.	.	.	.	.	.	.	16B-/	.	.	.	.	.	.	.	.	.	.	.	.	.	.	.	.	.	.	.
.	.	.	.	.	.	.	.	16c/	.	.	.	.	.	.	.	.	.	.	.	.	.	.	.	.	.	.	.
8E\	.	.	.	.	.	.	.	16B-/	.	.	.	.	.	.	.	.	.	.	.	.	.	.	.	.	.	.	.
.	.	.	.	.	.	.	.	16c/	.	.	.	.	.	.	.	.	.	.	.	.	.	.	.	.	.	.	.
8C\	.	.	.	.	.	.	.	16B-/	.	(16ddd\LL	.	.	.	.	.	.	.	.	.	.	.	.	.	.	.	.	.
.	.	.	.	.	.	.	.	16c/	.	16ccc\JJ	.	.	.	.	.	.	.	.	.	.	.	.	.	.	.	.	.
8E\	.	.	.	.	.	.	.	16B-/	.	16bb-X\LL	.	.	.	.	.	.	.	.	.	.	.	.	.	4cc\)	.	.	.
.	.	.	.	.	.	.	.	16c/	.	16aa\	.	.	.	.	.	.	.	.	.	.	.	.	.	.	.	.	.
8C\J	.	.	.	.	.	.	.	16B-/	.	16bb-\	.	.	.	.	.	.	.	.	.	.	.	.	.	.	.	.	.
.	.	.	.	.	.	.	.	16c/JJ)	.	16gg\JJ)	.	.	.	.	.	.	.	.	.	.	.	.	.	.	.	.	.
=55	=55	=55	=55	=55	=55	=55	=55	=55	=55	=55	=55	=55	=55	=55	=55	=55	=55	=55	=55	=55	=55	=55	=55	=55	=55	=55	=55
8F\L	8_ 3_	.	2.f 2.F/	2.ff 2.a\	.	2A 2F/	.	16A/LL	.	16ff'\LL	.	2F\	.	.	.	2c\	.	.	.	2f\	.	.	.	2a\	-son	-cem	.
.	.	.	.	.	.	.	.	16a/	.	(16ff\	.	.	.	.	.	.	.	.	.	.	.	.	.	.	.	.	.
8F\	.	.	.	.	.	.	.	16g#X/	.	16ee\	.	.	.	.	.	.	.	.	.	.	.	.	.	.	.	.	.
.	.	.	.	.	.	.	.	16a/JJ	.	16ff\JJ)	.	.	.	.	.	.	.	.	.	.	.	.	.	.	.	.	.
8F\	.	.	.	.	.	.	.	16b-X/LL	.	(16gg\LL	.	.	.	.	.	.	.	.	.	.	.	.	.	.	.	.	.
.	.	.	.	.	.	.	.	16a/	.	16ff\	.	.	.	.	.	.	.	.	.	.	.	.	.	.	.	.	.
8F\	.	.	.	.	.	.	.	16g#/	.	16ee\	.	.	.	.	.	.	.	.	.	.	.	.	.	.	.	.	.
.	.	.	.	.	.	.	.	16a/JJ	.	16ff\JJ)	.	.	.	.	.	.	.	.	.	.	.	.	.	.	.	.	.
*	*	*	*	*	*	*	*	*	*	*rep	*	*	*	*	*	*	*	*	*	*	*	*	*	*	*	*	*
8F\	.	.	.	.	.	4f\	.	16b-/LL	.	(16gg\LL	.	4r	.	.	.	4r	.	.	.	4r	.	.	.	4r	.	.	.
.	.	.	.	.	.	.	.	16a/	.	16ff\	.	.	.	.	.	.	.	.	.	.	.	.	.	.	.	.	.
8F\J	.	.	.	.	.	.	.	16g#/	.	16ee\	.	.	.	.	.	.	.	.	.	.	.	.	.	.	.	.	.
.	X X	.	.	.	.	.	.	16a/JJ	.	16ff\JJ)	.	.	.	.	.	.	.	.	.	.	.	.	.	.	.	.	.
*	*	*	*	*	*	*	*	*	*	*Xrep	*	*	*	*	*	*	*	*	*	*	*	*	*	*	*	*	*
=56	=56	=56	=56	=56	=56	=56	=56	=56	=56	=56	=56	=56	=56	=56	=56	=56	=56	=56	=56	=56	=56	=56	=56	=56	=56	=56	=56
!!LO:PB:g=original
8F\L	7 4 2	.	2.f 2.F/	2gg 2b-\	.	2e\	.	16b-X\LL	.	16gg'\LL	.	4r	.	.	.	4r	.	.	.	4r	.	.	.	4r	.	.	.
.	.	.	.	.	.	.	.	16b-\	.	(16gg\	.	.	.	.	.	.	.	.	.	.	.	.	.	.	.	.	.
8F\	.	.	.	.	.	.	.	16a\	.	16ff#X\	.	.	.	.	.	.	.	.	.	.	.	.	.	.	.	.	.
.	.	.	.	.	.	.	.	16b-\JJ	.	16gg\JJ)	.	.	.	.	.	.	.	.	.	.	.	.	.	.	.	.	.
8F\	.	.	.	.	.	.	.	16cc\LL	.	(16aa\LL	.	4r	.	.	.	4r	.	.	.	4r	.	.	.	4r	.	.	.
.	.	.	.	.	.	.	.	16b-\	.	16gg\	.	.	.	.	.	.	.	.	.	.	.	.	.	.	.	.	.
8F\J	.	.	.	.	.	.	.	16a\	.	16ff#\	.	.	.	.	.	.	.	.	.	.	.	.	.	.	.	.	.
.	.	.	.	.	.	.	.	16b-\JJ	.	16gg\JJ	.	.	.	.	.	.	.	.	.	.	.	.	.	.	.	.	.
4F\	-7 2	.	.	4aa 4cc\	.	4e-X\	.	16g/LL	.	16bb-X\LL	.	4F\	.	.	.	4c\	.	.	.	4a\	.	.	.	4cc\	e-	da	.
.	.	.	.	.	.	.	.	16f/	.	16aa\	.	.	.	.	.	.	.	.	.	.	.	.	.	.	.	.	.
.	.	.	.	.	.	.	.	16e/	.	16gg\	.	.	.	.	.	.	.	.	.	.	.	.	.	.	.	.	.
.	.	.	.	.	.	.	.	16f/JJ	.	16aa\JJ)	.	.	.	.	.	.	.	.	.	.	.	.	.	.	.	.	.
=57	=57	=57	=57	=57	=57	=57	=57	=57	=57	=57	=57	=57	=57	=57	=57	=57	=57	=57	=57	=57	=57	=57	=57	=57	=57	=57	=57
*	*	*	*	*^	*	*	*	*	*	*	*	*	*	*	*	*	*	*	*	*	*	*	*	*	*	*	*
8F\L	6 4	.	2.f 2.F/	2.bb-\	2dd\	.	2d\	.	16dd\LL	.	(16bb-X\LL	.	2.F\	.	.	.	2.B-X\	.	.	.	2b-X\	.	.	.	2dd\	-lei-	pa-	.
.	.	.	.	.	.	.	.	.	16dd\	.	16ccc\	.	.	.	.	.	.	.	.	.	.	.	.	.	.	.	.	.
8F\	.	.	.	.	.	.	.	.	16dd\	.	16ddd\	.	.	.	.	.	.	.	.	.	.	.	.	.	.	.	.	.
.	.	.	.	.	.	.	.	.	16dd\	.	16ccc\JJ	.	.	.	.	.	.	.	.	.	.	.	.	.	.	.	.	.
8F\	.	.	.	.	.	.	.	.	16dd\	.	16bb-\LL	.	.	.	.	.	.	.	.	.	.	.	.	.	.	.	.	.
.	.	.	.	.	.	.	.	.	16dd\	.	16aa\)	.	.	.	.	.	.	.	.	.	.	.	.	.	.	.	.	.
8F\	n7 4 2	.	.	.	.	.	.	.	16dd\	.	16gg\	.	.	.	.	.	.	.	.	.	.	.	.	.	.	.	.	.
.	.	.	.	.	.	.	.	.	16dd\JJ	.	[16ff\JJ	.	.	.	.	.	.	.	.	.	.	.	.	.	.	.	.	.
8F\	.	.	.	.	4een\	.	4d-X\	.	16b-XLL 16g/	.	16ff\LL]	.	.	.	.	.	.	.	.	.	4g\	.	.	.	4ee\	.	.	.
.	.	.	.	.	.	.	.	.	16b- 16g/	.	16ee\	.	.	.	.	.	.	.	.	.	.	.	.	.	.	.	.	.
8F\J	.	.	.	.	.	.	.	.	16b- 16g/	.	16bb-\	.	.	.	.	.	.	.	.	.	.	.	.	.	.	.	.	.
.	.	.	.	.	.	.	.	.	16b-JJ 16g/	.	16ee\JJ	.	.	.	.	.	.	.	.	.	.	.	.	.	.	.	.	.
*	*	*	*	*	*	*	*	*	*Xtremolo	*	*	*	*	*	*	*	*	*	*	*	*	*	*	*	*	*	*	*
*	*	*	*	*v	*v	*	*	*	*	*	*	*	*	*	*	*	*	*	*	*	*	*	*	*	*	*	*	*
=58	=58	=58	=58	=58	=58	=58	=58	=58	=58	=58	=58	=58	=58	=58	=58	=58	=58	=58	=58	=58	=58	=58	=58	=58	=58	=58	=58
8F\L	.	.	2f 2F/	2.aa 2.ff\	.	8c\L	.	16a/LL	.	16ff'\LL	.	2F\	.	.	.	2A\	.	.	.	2a\	.	.	.	2ff\	-son	-cem	.
.	.	.	.	.	.	.	.	16a/	.	(16ff\	.	.	.	.	.	.	.	.	.	.	.	.	.	.	.	.	.
8F\	.	.	.	.	.	8c\	.	16g#X/	.	16ee\	.	.	.	.	.	.	.	.	.	.	.	.	.	.	.	.	.
.	.	.	.	.	.	.	.	16a/JJ	.	16ff\JJ	.	.	.	.	.	.	.	.	.	.	.	.	.	.	.	.	.
8F\	.	.	.	.	.	8c\	.	16b-/LL	.	16gg\LL	.	.	.	.	.	.	.	.	.	.	.	.	.	.	.	.	.
.	.	.	.	.	.	.	.	16a/	.	16ff\	.	.	.	.	.	.	.	.	.	.	.	.	.	.	.	.	.
8F\J	.	.	.	.	.	8c\J	.	16g#/	.	16ee\	.	.	.	.	.	.	.	.	.	.	.	.	.	.	.	.	.
.	.	.	.	.	.	.	.	16a/JJ	.	16ff\JJ)	.	.	.	.	.	.	.	.	.	.	.	.	.	.	.	.	.
*Xtremolo	*	*	*	*	*	*Xtremolo	*	*	*	*	*	*	*	*	*	*	*	*	*	*	*	*	*	*	*	*	*
8D\L	.	.	4a 4f\	.	.	8d\L	.	16f/LL	.	16aa\LL	.	4D\	.	.	.	4d\	.	.	.	4a\	.	.	.	[4ff\	e-	da	.
.	.	.	.	.	.	.	.	16a/	.	16ff\	.	.	.	.	.	.	.	.	.	.	.	.	.	.	.	.	.
8D\J	.	.	.	.	.	8d\J	.	16g#/	.	16ee\	.	.	.	.	.	.	.	.	.	.	.	.	.	.	.	.	.
.	.	.	.	.	.	.	.	16a/JJ	.	16ff\JJ	.	.	.	.	.	.	.	.	.	.	.	.	.	.	.	.	.
=59	=59	=59	=59	=59	=59	=59	=59	=59	=59	=59	=59	=59	=59	=59	=59	=59	=59	=59	=59	=59	=59	=59	=59	=59	=59	=59	=59
*	*	*	*	*^	*	*	*	*	*	*	*	*	*	*	*	*	*	*	*	*	*	*	*	*	*	*	*
8BB-X/L	.	.	4g 4f\	2.gg/	2ff\	.	8dL 8B-X\	.	16b-\LL	.	16ddd\LL	.	4BB-X/	.	.	.	4d\	.	.	.	2.g\	.	.	.	2ff\]	-lei-	pa-	.
.	.	.	.	.	.	.	.	.	16dd\	.	16bb-X\	.	.	.	.	.	.	.	.	.	.	.	.	.	.	.	.	.
8BB-/J	.	.	.	.	.	.	8dJ 8B-\	.	16cc#X\	.	16aa\	.	.	.	.	.	.	.	.	.	.	.	.	.	.	.	.	.
.	.	.	.	.	.	.	.	.	16dd\JJ	.	16bb-\JJ	.	.	.	.	.	.	.	.	.	.	.	.	.	.	.	.	.
*tremolo	*	*	*	*	*	*	*tremolo	*	*	*	*	*	*	*	*	*	*	*	*	*	*	*	*	*	*	*	*	*
8C/L	6 4	.	4a 4f\	.	.	.	8c\L	.	16a\LL	.	16ccc\LL	.	2C/	.	.	.	4c\	.	.	.	.	.	.	.	.	.	.	.
.	.	.	.	.	.	.	.	.	16ff\	.	16aa\	.	.	.	.	.	.	.	.	.	.	.	.	.	.	.	.	.
8C/	.	.	.	.	.	.	8c\	.	16ee\	.	16gg#X\	.	.	.	.	.	.	.	.	.	.	.	.	.	.	.	.	.
.	.	.	.	.	.	.	.	.	16ff\JJ	.	16aa\JJ	.	.	.	.	.	.	.	.	.	.	.	.	.	.	.	.	.
8C/	7	.	4g 4c/	.	4ee\	.	8c\	.	16gg\LL	.	16bb-\LL	.	.	.	.	.	4B-X\	.	.	.	.	.	.	.	4een\	.	.	.
.	.	.	.	.	.	.	.	.	16ee\	.	16ggn\	.	.	.	.	.	.	.	.	.	.	.	.	.	.	.	.	.
8C/J	.	.	.	.	.	.	8c\J	.	16dd#X\	.	16ff#X\	.	.	.	.	.	.	.	.	.	.	.	.	.	.	.	.	.
.	.	.	.	.	.	.	.	.	16ee\JJ	.	16gg\JJ	.	.	.	.	.	.	.	.	.	.	.	.	.	.	.	.	.
=60	=60	=60	=60	=60	=60	=60	=60	=60	=60	=60	=60	=60	=60	=60	=60	=60	=60	=60	=60	=60	=60	=60	=60	=60	=60	=60	=60	=60
!	!	!	!	!	!	!	!	!	!	!	!	!	!LO:TX:a:t=P:problem:dopisane ołówkiem 2D/	!	!	!	!	!	!	!	!	!	!	!	!	!	!	!
8F\L	.	.	2f 2F/	2.aa/	2.ff\	.	8f\L	.	16a/LL	.	16ffn'\LL	.	2F\	.	.	.	2A\	.	.	.	2a\	.	.	.	2ff\	-son	-cem	.
.	.	.	.	.	.	.	.	.	16a/	.	(16ff\	.	.	.	.	.	.	.	.	.	.	.	.	.	.	.	.	.
8F\	.	.	.	.	.	.	8f\	.	16g#X/	.	16ee\	.	.	.	.	.	.	.	.	.	.	.	.	.	.	.	.	.
.	.	.	.	.	.	.	.	.	16a/JJ	.	16ff\JJ)	.	.	.	.	.	.	.	.	.	.	.	.	.	.	.	.	.
8F\	.	.	.	.	.	.	8f\	.	16b-/LL	.	(16gg\LL	.	.	.	.	.	.	.	.	.	.	.	.	.	.	.	.	.
.	.	.	.	.	.	.	.	.	16a/	.	16ff\	.	.	.	.	.	.	.	.	.	.	.	.	.	.	.	.	.
8F\J	.	.	.	.	.	.	8f\J	.	16g#/	.	16ee\	.	.	.	.	.	.	.	.	.	.	.	.	.	.	.	.	.
.	.	.	.	.	.	.	.	.	16a/JJ	.	16ff\JJ	.	.	.	.	.	.	.	.	.	.	.	.	.	.	.	.	.
!	!	!	!	!	!	!	!	!	!	!	!	!	!LO:TX:a:t=P:problem:dopisane ołówkiem 4C/	!	!	!	!	!	!	!	!	!	!	!	!	!	!	!
*Xtremolo	*	*	*	*	*	*	*Xtremolo	*	*	*	*	*	*	*	*	*	*	*	*	*	*	*	*	*	*	*	*	*
8D\L	.	.	4a 4f\	.	.	.	8d\L	.	16f/LL	.	16aa\LL	.	4D\	.	.	.	4d\	.	.	.	4a\	.	.	.	4ff\	e-	da	.
.	.	.	.	.	.	.	.	.	16a/	.	16ff\	.	.	.	.	.	.	.	.	.	.	.	.	.	.	.	.	.
8D\J	.	.	.	.	.	.	8d\J	.	16g#/	.	16ee\	.	.	.	.	.	.	.	.	.	.	.	.	.	.	.	.	.
.	.	.	.	.	.	.	.	.	16a/JJ	.	16ff\JJ)	.	.	.	.	.	.	.	.	.	.	.	.	.	.	.	.	.
=61	=61	=61	=61	=61	=61	=61	=61	=61	=61	=61	=61	=61	=61	=61	=61	=61	=61	=61	=61	=61	=61	=61	=61	=61	=61	=61	=61	=61
*	*	*	*^	*	*	*	*	*	*	*	*	*	*	*	*	*	*	*	*	*	*	*	*	*	*	*	*	*
8BB-/L	.	.	4g/	4f\	2.gg/	2ff\	.	8dL 8B-\	.	16b-\LL	.	16ddd'\LL	.	4BB-X/	.	.	.	4d\	.	.	.	2.g\	.	.	.	2ff\	-lei-	pa-	.
.	.	.	.	.	.	.	.	.	.	16dd\	.	(16bb-\	.	.	.	.	.	.	.	.	.	.	.	.	.	.	.	.	.
8BB-/J	.	.	.	.	.	.	.	8dJ 8B-\	.	16cc#X\	.	16aa\	.	.	.	.	.	.	.	.	.	.	.	.	.	.	.	.	.
.	.	.	.	.	.	.	.	.	.	16dd\JJ	.	16bb-\JJ)	.	.	.	.	.	.	.	.	.	.	.	.	.	.	.	.	.
*tremolo	*	*	*	*	*	*	*	*tremolo	*	*	*	*	*	*	*	*	*	*	*	*	*	*	*	*	*	*	*	*	*
8C/L	6 4	.	4a/	4f\	.	.	.	8c\L	.	16a\LL	.	16ccc'\LL	.	2C/	.	.	.	4c\	.	.	.	.	.	.	.	.	.	.	.
.	.	.	.	.	.	.	.	.	.	16ff\	.	(16aa\	.	.	.	.	.	.	.	.	.	.	.	.	.	.	.	.	.
8C/	.	.	.	.	.	.	.	8c\	.	16ee\	.	16gg#X\	.	.	.	.	.	.	.	.	.	.	.	.	.	.	.	.	.
.	.	.	.	.	.	.	.	.	.	16ff\JJ	.	16aa\JJ)	.	.	.	.	.	.	.	.	.	.	.	.	.	.	.	.	.
8C/	7	.	4g 4c/	4rAyy	.	4ee\	.	8c\	.	16gg\LL	.	16bb-'\LL	.	.	.	.	.	4B-X\	.	.	.	.	.	.	.	4een\	.	.	.
.	.	.	.	.	.	.	.	.	.	16ee\	.	(16ggn\	.	.	.	.	.	.	.	.	.	.	.	.	.	.	.	.	.
8C/J	.	.	.	.	.	.	.	8c\J	.	16dd#X\	.	16ff#X\	.	.	.	.	.	.	.	.	.	.	.	.	.	.	.	.	.
.	.	.	.	.	.	.	.	.	.	16ee\JJ	.	16gg\JJ)	.	.	.	.	.	.	.	.	.	.	.	.	.	.	.	.	.
*	*	*	*v	*v	*	*	*	*	*	*	*	*	*	*	*	*	*	*	*	*	*	*	*	*	*	*	*	*	*
=62	=62	=62	=62	=62	=62	=62	=62	=62	=62	=62	=62	=62	=62	=62	=62	=62	=62	=62	=62	=62	=62	=62	=62	=62	=62	=62	=62	=62
!!LO:PB:g=original
2D/	.	<	4.f 4.F/	4.ff/	4.a\	.	8d\L	.	16a/LL	.	16ff'\LL	.	2D/	.	.	.	4A\	.	.	.	2.a\	.	.	.	2.ff\	-son	-cem	.
.	.	.	.	.	.	.	.	.	16a/	.	(16ff\	<	.	.	.	.	.	.	.	.	.	.	.	.	.	.	.	.
.	.	.	.	.	.	.	8d\	.	16g#X/	.	16ee\	.	.	.	.	.	.	.	.	.	.	.	.	.	.	.	.	.
.	.	.	.	.	.	.	.	.	16a/JJ	.	16ff\JJ)	.	.	.	.	.	.	.	.	.	.	.	.	.	.	.	.	.
.	.	.	.	.	.	.	8d\	.	16f/LL	.	16aa'\LL	.	.	.	.	.	2d\	.	.	.	.	.	.	.	.	.	.	.
.	.	.	.	.	.	.	.	.	16a/	.	(16ff\	.	.	.	.	.	.	.	.	.	.	.	.	.	.	.	.	.
.	.	.	8fL 8F/	8ff/L	8a\L	.	8d\J	.	16g#X/	.	16ee\	.	.	.	.	.	.	.	.	.	.	.	.	.	.	.	.	.
.	.	.	.	.	.	.	.	.	16a/JJ	.	16ff\JJ)	.	.	.	.	.	.	.	.	.	.	.	.	.	.	.	.	.
*	*	*	*	*	*	*	*Xtremolo	*	*rep	*	*	*	*	*	*	*	*	*	*	*	*	*	*	*	*	*	*	*
4C/	6 4	[[	8f 8F/	8ff/	8a\	.	8c\L	.	16f/LL	.	16ddd'\LL	.	4C/	.	.	.	.	.	.	.	.	.	.	.	.	.	.	.
.	.	.	.	.	.	.	.	.	16a/	.	16ff\	.	.	.	.	.	.	.	.	.	.	.	.	.	.	.	.	.
.	.	.	8fJ 8F/	8ff/J	8a\J	.	8c\J	.	16g#X/	.	16ee\	[	.	.	.	.	.	.	.	.	.	.	.	.	.	.	.	.
.	.	.	.	.	.	.	.	.	16a/JJ	.	(16ff\JJ	.	.	.	.	.	.	.	.	.	.	.	.	.	.	.	.	.
*	*	*	*	*	*	*	*	*	*Xrep	*	*	*	*	*	*	*	*	*	*	*	*	*	*	*	*	*	*	*
=63	=63	=63	=63	=63	=63	=63	=63	=63	=63	=63	=63	=63	=63	=63	=63	=63	=63	=63	=63	=63	=63	=63	=63	=63	=63	=63	=63	=63
*	*	*	*	*	*	*	*tremolo	*	*	*	*	*	*	*	*	*	*	*	*	*	*	*	*	*	*	*	*	*
!	!	!	!	!	!	!	!	!	!	!	!	!	!	!	!	!	!	!	!	!	!	!	!	!	!	!	!	!LO:DY:a:rj
8BBn/L	-7_	ff	2.f 2.F/	[2.dd/	2.a-X\	ff	8Bn/L	.	8dd 8a-X\	.	8fff\)	ff	4.BBn/	.	.	.	4.d\	.	.	.	4.a-X\	.	.	.	4.ff\	Ky-	do-	ff
8BB/	.	.	.	.	.	.	8B/	.	4dd 4a-\	.	4fff\	.	.	.	.	.	.	.	.	.	.	.	.	.	.	.	.	.
8BB/	.	.	.	.	.	.	8B/	.	.	.	.	.	.	.	.	.	.	.	.	.	.	.	.	.	.	.	.	.
8BB/	.	.	.	.	.	.	8B/	.	4dd 4a-\	.	4fff\	.	8BB/	.	.	.	8d\	.	.	.	8a-\	.	.	.	8ff\	-ri-	-na	.
8BB/	.	.	.	.	.	.	8B/	.	.	.	.	.	8BB/	.	.	.	8d\	.	.	.	8a-\	.	.	.	8ff\	-e	no-	.
8BB/J	.	.	.	.	.	.	8B/J	.	8dd 8a-\	.	8fff\	.	8BB/	.	.	.	8d\	.	.	.	8a-\	.	.	.	8ff\	e-	-bis	.
=64	=64	=64	=64	=64	=64	=64	=64	=64	=64	=64	=64	=64	=64	=64	=64	=64	=64	=64	=64	=64	=64	=64	=64	=64	=64	=64	=64	=64
!	!	!	!	!	!	!	!	!	!	!	!	!	!	!	!	!	!	!	!	!	!	!	!	!	!LO:TX:a:t=P:problem:mixed beam	!	!	!
8BBn/L	.	>	2f 2F/	2dd/]	2a-X\	.	8Bn/L	.	8dd 8a-X\	.	8fff\	>	4BBn/	.	.	.	4d\	.	.	.	4a-X\	.	.	.	8ff\L	-lei-	pa-	.
8BB/	.	.	.	.	.	.	8B/	.	4dd 4a-\	.	4fff\	.	.	.	.	.	.	.	.	.	.	.	.	.	8f/J	.	.	.
8BB/	.	.	.	.	.	.	8B/	.	.	.	.	.	4BB/	.	.	.	4d\	.	.	.	4a-\	.	.	.	4f/	-son	-cem	.
8BB/	.	.	.	.	.	.	8B/	.	4dd 4a-\	.	4fff\	.	.	.	.	.	.	.	.	.	.	.	.	.	.	.	.	.
8BB/	.	.	4r	4r	4ryy	.	8B/	.	.	.	.	.	4r	.	.	.	4r	.	.	.	4r	.	.	.	4r	.	.	.
8BB/J	X	]	.	.	.	.	8B/J	.	8dd 8a-\	.	8fff\	]	.	.	.	.	.	.	.	.	.	.	.	.	.	.	.	.
=65	=65	=65	=65	=65	=65	=65	=65	=65	=65	=65	=65	=65	=65	=65	=65	=65	=65	=65	=65	=65	=65	=65	=65	=65	=65	=65	=65	=65
4C/	n6 4	p	2.r	4r	4ryy	.	[2.c\	.	16an'\LL	.	16fff\LL	.	[2.C/	.	.	.	4r	.	.	.	4r	.	.	.	4r	.	.	.
.	.	.	.	.	.	.	.	.	(16aa\	.	(16ccc\	p	.	.	.	.	.	.	.	.	.	.	.	.	.	.	.	.
!LO:TX:a:t=tasto Solo	!	!	!	!	!	!	!	!	!	!	!	!	!	!	!	!	!	!	!	!	!	!	!	!	!	!	!	!
.	.	.	.	.	.	.	.	.	16gg#X\	.	16bbn\	.	.	.	.	.	.	.	.	.	.	.	.	.	.	.	.	.
.	.	.	.	.	.	.	.	.	16aa\JJ)	.	16ccc\JJ	.	.	.	.	.	.	.	.	.	.	.	.	.	.	.	.	.
4C/	.	.	.	4r	4ryy	.	.	.	16aa'\LL	.	16ccc\LL)	.	.	.	.	.	4r	.	.	.	4r	.	.	.	4r	.	.	.
.	.	.	.	.	.	.	.	.	(16cc\	.	16aa\	.	.	.	.	.	.	.	.	.	.	.	.	.	.	.	.	.
.	.	.	.	.	.	.	.	.	16bn\	.	16gg#X\	.	.	.	.	.	.	.	.	.	.	.	.	.	.	.	.	.
.	.	.	.	.	.	.	.	.	16cc\JJ)	.	16aa\JJ	.	.	.	.	.	.	.	.	.	.	.	.	.	.	.	.	.
4C/	.	.	.	4an/	4f\	.	.	.	8a\	.	8ff\	.	.	.	.	.	4c\	.	.	.	4f\	.	.	.	4a\	e-	da	.
.	.	.	.	.	.	.	.	.	8r	.	8r	.	.	.	.	.	.	.	.	.	.	.	.	.	.	.	.	.
=66	=66	=66	=66	=66	=66	=66	=66	=66	=66	=66	=66	=66	=66	=66	=66	=66	=66	=66	=66	=66	=66	=66	=66	=66	=66	=66	=66	=66
!	!	!	!	!	!	!	!	!	!	!	!LO:TX:a:t=P:problem:mixed beam	!	!	!	!	!	!	!	!	!	!	!	!	!	!	!	!	!
2.C/	.	.	4r	2.g/	2.f\	.	2.c\]	.	4r	.	16ff'\LL	.	2.C/]	.	.	.	[2.c\	.	.	.	2.f\	.	.	.	[2.g\	-lei-	pa-	.
.	.	.	.	.	.	.	.	.	.	.	(<16g/	.	.	.	.	.	.	.	.	.	.	.	.	.	.	.	.	.
.	.	.	.	.	.	.	.	.	.	.	16f#X/	.	.	.	.	.	.	.	.	.	.	.	.	.	.	.	.	.
.	.	.	.	.	.	.	.	.	.	.	16g/JJ)	.	.	.	.	.	.	.	.	.	.	.	.	.	.	.	.	.
.	.	.	4c/	.	.	.	.	.	16r	.	8g/	.	.	.	.	.	.	.	.	.	.	.	.	.	.	.	.	.
.	.	.	.	.	.	.	.	.	(16f/LL	.	.	.	.	.	.	.	.	.	.	.	.	.	.	.	.	.	.	.
.	.	.	.	.	.	.	.	.	16en/	.	8r	.	.	.	.	.	.	.	.	.	.	.	.	.	.	.	.	.
.	.	.	.	.	.	.	.	.	16f/JJ	.	.	.	.	.	.	.	.	.	.	.	.	.	.	.	.	.	.	.
.	.	.	4c/	.	.	.	.	.	16g/LL	.	4r	.	.	.	.	.	.	.	.	.	.	.	.	.	.	.	.	.
.	.	.	.	.	.	.	.	.	16f/	.	.	.	.	.	.	.	.	.	.	.	.	.	.	.	.	.	.	.
.	.	.	.	.	.	.	.	.	16e/	.	.	.	.	.	.	.	.	.	.	.	.	.	.	.	.	.	.	.
.	.	.	.	.	.	.	.	.	16f/JJ)	.	.	.	.	.	.	.	.	.	.	.	.	.	.	.	.	.	.	.
=67	=67	=67	=67	=67	=67	=67	=67	=67	=67	=67	=67	=67	=67	=67	=67	=67	=67	=67	=67	=67	=67	=67	=67	=67	=67	=67	=67	=67
!	!	!	!	!	!	!	!	!	!	!	!LO:TX:a:t=P:problem:mixed beam	!	!	!	!	!	!	!	!	!	!	!	!	!	!	!	!	!
2.C/	.	.	(2.g 2.c/	2.g/	2.e\	.	2.c\	.	4r	.	16ee'\LL	.	2.C/	.	.	.	4c\]	.	.	.	2.e\	.	.	.	2.g\]	.	.	.
.	.	.	.	.	.	.	.	.	.	.	(16g/	.	.	.	.	.	.	.	.	.	.	.	.	.	.	.	.	.
.	.	.	.	.	.	.	.	.	.	.	16f#X/	.	.	.	.	.	.	.	.	.	.	.	.	.	.	.	.	.
.	.	.	.	.	.	.	.	.	.	.	16g/JJ)	.	.	.	.	.	.	.	.	.	.	.	.	.	.	.	.	.
.	.	.	.	.	.	.	.	.	16r	.	8g/	.	.	.	.	.	8B-\L	.	.	.	.	.	.	.	.	.	.	.
.	.	.	.	.	.	.	.	.	(16e/LL	.	.	.	.	.	.	.	.	.	.	.	.	.	.	.	.	.	.	.
.	.	.	.	.	.	.	.	.	16d#X/	.	8r	.	.	.	.	.	8A\J	.	.	.	.	.	.	.	.	.	.	.
.	.	.	.	.	.	.	.	.	16e/JJ	.	.	.	.	.	.	.	.	.	.	.	.	.	.	.	.	.	.	.
.	.	.	.	.	.	.	.	.	16f/LL	.	4r	.	.	.	.	.	4B-\	.	.	.	.	.	.	.	.	.	.	.
.	.	.	.	.	.	.	.	.	16e/	.	.	.	.	.	.	.	.	.	.	.	.	.	.	.	.	.	.	.
.	.	.	.	.	.	.	.	.	16d#/	.	.	.	.	.	.	.	.	.	.	.	.	.	.	.	.	.	.	.
.	.	.	.	.	.	.	.	.	16e/JJ)	.	.	.	.	.	.	.	.	.	.	.	.	.	.	.	.	.	.	.
=68	=68	=68	=68	=68	=68	=68	=68	=68	=68	=68	=68	=68	=68	=68	=68	=68	=68	=68	=68	=68	=68	=68	=68	=68	=68	=68	=68	=68
!!LO:PB:g=original
*	*	*	*^	*	*	*	*	*	*	*	*	*	*	*	*	*	*	*	*	*	*	*	*	*	*	*	*	*
!	!	!	!LO:TX:b:t=P:problem:brak zakończenia łuku	!	!	!	!	!	!	!	!	!	!	!	!	!	!	!	!	!	!	!	!	!	!	!	!	!	!
8FF/L	.	.	2f 2A/)	2rAyy	2a/	2f\	p	4r	.	16f'/LL	.	4r	.	2F\	.	.	.	2A\	.	.	.	2f\	.	.	.	2f\	-son	-cem	.
.	.	.	.	.	.	.	.	.	.	(16f/	.	.	.	.	.	.	.	.	.	.	.	.	.	.	.	.	.	.	.
8FF/	.	.	.	.	.	.	.	.	.	16e/	.	.	.	.	.	.	.	.	.	.	.	.	.	.	.	.	.	.	.
.	.	.	.	.	.	.	.	.	.	16f/JJ	.	.	.	.	.	.	.	.	.	.	.	.	.	.	.	.	.	.	.
8FF/	.	.	.	.	.	.	.	4r	.	16g/LL	.	4r	.	.	.	.	.	.	.	.	.	.	.	.	.	.	.	.	.
.	.	.	.	.	.	.	.	.	.	16f/	.	.	.	.	.	.	.	.	.	.	.	.	.	.	.	.	.	.	.
8FF/J	.	.	.	.	.	.	.	.	.	16e/	.	.	.	.	.	.	.	.	.	.	.	.	.	.	.	.	.	.	.
.	.	.	.	.	.	.	.	.	.	16f/JJ)	.	.	.	.	.	.	.	.	.	.	.	.	.	.	.	.	.	.	.
*Xtremolo	*	*	*	*	*	*	*	*	*	*rep	*	*	*	*	*	*	*	*	*	*	*	*	*	*	*	*	*	*	*
8AA/L	6	.	4f/	4f\	4cc/	4cc\	.	(4c\	.	16g/LL	.	[4ccc\	.	4AA/	.	.	.	8f\L	.	.	.	4f\	.	.	.	[4cc\	e-	pa-	.
.	.	.	.	.	.	.	.	.	.	16f/	.	.	.	.	.	.	.	.	.	.	.	.	.	.	.	.	.	.	.
8AA/J	.	.	.	.	.	.	.	.	.	16e/	.	.	.	.	.	.	.	8e\J	.	.	.	.	.	.	.	.	.	.	.
.	.	.	.	.	.	.	.	.	.	16f/JJ	.	.	.	.	.	.	.	.	.	.	.	.	.	.	.	.	.	.	.
*	*	*	*	*	*	*	*	*	*	*Xrep	*	*	*	*	*	*	*	*	*	*	*	*	*	*	*	*	*	*	*
=69	=69	=69	=69	=69	=69	=69	=69	=69	=69	=69	=69	=69	=69	=69	=69	=69	=69	=69	=69	=69	=69	=69	=69	=69	=69	=69	=69	=69	=69
*tremolo	*	*	*	*	*	*	*	*	*	*	*	*	*	*	*	*	*	*	*	*	*	*	*	*	*	*	*	*	*
8BB-/L	9	.	2.f/	2.f\	2.dd/	4cc\	.	2.d\)	.	8f/	.	4ccc\]	.	2BB-/	.	.	.	2.d\	.	.	.	2.f\	.	.	.	4cc\]	-lei-	.	.
8BB-/	.	.	.	.	.	.	.	.	.	4f/	.	.	.	.	.	.	.	.	.	.	.	.	.	.	.	.	.	.	.
8BB-/	8	.	.	.	.	8b-\L	.	.	.	.	.	8bb-\L	.	.	.	.	.	.	.	.	.	.	.	.	.	8b-\L	.	.	.
8BB-/J	.	.	.	.	.	8a\J	.	.	.	4f/	.	8aa\J	.	.	.	.	.	.	.	.	.	.	.	.	.	8a\J	.	.	.
*Xtremolo	*	*	*	*	*	*	*	*	*	*	*	*	*	*	*	*	*	*	*	*	*	*	*	*	*	*	*	*	*
8D\L	6	.	.	.	.	[>4b-\	.	.	.	.	.	[4bb-\	.	4D/	.	.	.	.	.	.	.	.	.	.	.	[4b-\	.	.	.
8D\J	.	.	.	.	.	.	.	.	.	8f/	.	.	.	.	.	.	.	.	.	.	.	.	.	.	.	.	.	.	.
=70	=70	=70	=70	=70	=70	=70	=70	=70	=70	=70	=70	=70	=70	=70	=70	=70	=70	=70	=70	=70	=70	=70	=70	=70	=70	=70	=70	=70	=70
*tremolo	*	*	*	*	*	*	*	*	*	*	*	*	*	*	*	*	*	*	*	*	*	*	*	*	*	*	*	*	*
8F\L	4	.	[2.f/	2.f\	2.cc/	4b-\]	.	2.c\	.	8f/	.	4bb-\]	.	2.F\	.	.	.	2.c\	.	.	.	[2.f\	.	.	.	4b-\]	.	.	.
8F\	.	.	.	.	.	.	.	.	.	4f/	.	.	.	.	.	.	.	.	.	.	.	.	.	.	.	.	.	.	.
8F\	3_	.	.	.	.	8a\L	.	.	.	.	.	8aa\L	.	.	.	.	.	.	.	.	.	.	.	.	.	8a\L	.	.	.
8F\	.	.	.	.	.	8g\J	.	.	.	4f/	.	8gg\J	.	.	.	.	.	.	.	.	.	.	.	.	.	8g\J	.	.	.
8F\	.	.	.	.	.	4a\	.	.	.	.	.	4aa\	.	.	.	.	.	.	.	.	.	.	.	.	.	4a\	.	.	.
8F\J	X	.	.	.	.	.	.	.	.	8f/	.	.	.	.	.	.	.	.	.	.	.	.	.	.	.	.	.	.	.
=71	=71	=71	=71	=71	=71	=71	=71	=71	=71	=71	=71	=71	=71	=71	=71	=71	=71	=71	=71	=71	=71	=71	=71	=71	=71	=71	=71	=71	=71
8C/L	7_ 4	.	4f/]	2.c\	2cc/	2.g\	.	2c\	.	4f/	.	(2.gg\	.	2.C/	.	.	.	2c\	.	.	.	4f\]	.	.	.	2.g\	.	.	.
8C/	x_ 3_	.	.	.	.	.	.	.	.	.	.	.	.	.	.	.	.	.	.	.	.	.	.	.	.	.	.	.	.
8C/	.	.	8e/L	.	.	.	.	.	.	8e/L	.	.	.	.	.	.	.	.	.	.	.	8e\L	.	.	.	.	.	.	.
8C/	.	.	8d/J	.	.	.	.	.	.	8d/J	.	.	.	.	.	.	.	.	.	.	.	8d\J	.	.	.	.	.	.	.
8C/	.	.	4e/	.	4b-/	.	.	4B-\	.	4e/	.	.	.	.	.	.	.	4B-\	.	.	.	4e\	.	.	.	.	.	.	.
8C/J	X X	.	.	.	.	.	.	.	.	.	.	.	.	.	.	.	.	.	.	.	.	.	.	.	.	.	.	.	.
*	*	*	*v	*v	*	*	*	*	*	*	*	*	*	*	*	*	*	*	*	*	*	*	*	*	*	*	*	*	*
=72	=72	=72	=72	=72	=72	=72	=72	=72	=72	=72	=72	=72	=72	=72	=72	=72	=72	=72	=72	=72	=72	=72	=72	=72	=72	=72	=72	=72
8FF/L	.	.	2.f 2.A/	2.a/	2.f\	.	16A'/LL	.	16f/LL	.	2.ff\)	.	2.FF/	.	.	.	2.A\	.	.	.	2.f\	.	.	.	2.f\	.	.	.
.	.	.	.	.	.	.	(16A/	.	(16f/	.	.	.	.	.	.	.	.	.	.	.	.	.	.	.	.	.	.	.
8FF/	.	.	.	.	.	.	16G#X/	.	16e/	.	.	.	.	.	.	.	.	.	.	.	.	.	.	.	.	.	.	.
.	.	.	.	.	.	.	16A/JJ)	.	16f/JJ)	.	.	.	.	.	.	.	.	.	.	.	.	.	.	.	.	.	.	.
8FF/	.	.	.	.	.	.	16c/LL	.	16a'/LL	.	.	.	.	.	.	.	.	.	.	.	.	.	.	.	.	.	.	.
.	.	.	.	.	.	.	16A/	.	(16f/	.	.	.	.	.	.	.	.	.	.	.	.	.	.	.	.	.	.	.
8FF/	.	.	.	.	.	.	16G#/	.	16e/	.	.	.	.	.	.	.	.	.	.	.	.	.	.	.	.	.	.	.
.	.	.	.	.	.	.	16A/JJ	.	16f/JJ)	.	.	.	.	.	.	.	.	.	.	.	.	.	.	.	.	.	.	.
8FF/	.	.	.	.	.	.	16F/LL	.	16f/LL	.	.	.	.	.	.	.	.	.	.	.	.	.	.	.	.	.	.	.
.	.	.	.	.	.	.	16A/	.	16c/	.	.	.	.	.	.	.	.	.	.	.	.	.	.	.	.	.	.	.
8FF/J	.	.	.	.	.	.	16G#X/	.	16Bn/	.	.	.	.	.	.	.	.	.	.	.	.	.	.	.	.	.	.	.
.	.	.	.	.	.	.	16A/JJ	.	16c/JJ	.	.	.	.	.	.	.	.	.	.	.	.	.	.	.	.	.	.	.
=73	=73	=73	=73	=73	=73	=73	=73	=73	=73	=73	=73	=73	=73	=73	=73	=73	=73	=73	=73	=73	=73	=73	=73	=73	=73	=73	=73	=73
2FF/	.	.	2f 2A/	2a/	2f\	.	2A/	.	2c/	.	2ff\	.	2FF/	.	.	.	2A\	.	.	.	2f\	.	.	.	2f\	-son	-cem	.
4r	.	.	4r	4r	4ryy	.	4r	.	4r	.	4r	.	4r	.	.	.	4r	.	.	.	4r	.	.	.	4r	.	.	.
*	*	*	*	*v	*v	*	*	*	*	*	*	*	*	*	*	*	*	*	*	*	*	*	*	*	*	*	*	*
==	==	==	==	==	==	==	==	==	==	==	==	==	==	==	==	==	==	==	==	==	==	==	==	==	==	==	==
*-	*-	*-	*-	*-	*-	*-	*-	*-	*-	*-	*-	*-	*-	*-	*-	*-	*-	*-	*-	*-	*-	*-	*-	*-	*-	*-	*-
!!!system-decoration: [g1{g2}s7,s8,s9,s10]
!!!RDF**kern: > = above
!!!RDF**kern: < = below
!!!ENC: Andrzej Kubiczek
!!!END: 2020-04-04
!!!ENC: Marta Lawrence
!!!END: 2020-06-09
